!!!!SEGMENT: pl-cz--ii-81_elsner-jozef--salve-regina-b-op-43.krn
!!!cenid: 18xx:14
!!!COM: Elsner, Józef
!!!COM-rismID:
!!!CDT: 1769/06/01-1854/04/18
!!!CNT: Polish
!!!OTL: Salve Regina B op. 43
!!!PDT: 1827
!!!AGN: Sacred
!!!SMS-siglum: PL-CZ
!!!SMS-shelfmark: II-81
!!!SMS-shelfwork: W
!!!NIFC-rismSourceID:
!!!NIFC-islandoraID: pl-cz:33815
!!!URL-pdf-islandora: https://repozytorium.nifc.pl/islandora/object/pl-cz%3A33815/datastream/PDF/view
!!!URL-scan:
!!!ONB-nifc:
!!!OMD: Andantino
!!!AIN: 1 alto 2 bass 2 clars 2 cor 2 fagot 1 flt 1 soprn 1 tenor 1 tromt
!!!key:
**kern	**dynam	**kern	**text	**kern	**text	**kern	**text	**kern	**text	**dynam	**kern	**dynam	**kern	**dynam	**kern	**dynam	**kern	**dynam	**kern	**dynam	**kern	**dynam	**kern	**dynam	**kern	**dynam
*part13	*part13	*part12	*part12	*part11	*part11	*part10	*part10	*part9	*part9	*part9	*part8	*part8	*part7	*part7	*part6	*part6	*part5	*part5	*part4	*part4	*part3	*part3	*part2	*part2	*part1	*part1
*staff13	*	*staff12	*staff12	*staff11	*staff11	*staff10	*staff10	*staff9	*staff9	*	*staff8	*	*staff7	*	*staff6	*	*staff5	*	*staff4	*	*staff3	*	*staff2	*	*staff1	*
*Ibass	*	*Ibass	*	*Itenor	*	*Ialto	*	*Isoprn	*	*	*Itromt	*	*Icor	*	*Icor	*	*Ifagot	*	*Ifagot	*	*Iclars	*	*Iclars	*	*Iflt	*
*I"Basso	*	*I"Basso	*	*I"Tenore	*	*I"Alto	*	*I"Soprano	*	*	*I"Trombone	*	*I"Corno II in Es	*	*I"Corno I in Es	*	*I"Fagotto II	*	*I"Fagotto I	*	*I"Clarinetto II in B	*	*I"Clarinetto I in B	*	*I"Flauto	*
*I'B	*	*I'B	*	*I'T	*	*I'A	*	*I'S	*	*	*I'Tbn	*	*I'Cor II in Es	*	*I'Cor I in Es	*	*I'Fg II	*	*I'Fg I	*	*I'Cl II in B	*	*I'Cl I in B	*	*I'Fl	*
*clefF4	*	*clefF4	*	*clefC4	*	*clefC3	*	*clefC1	*	*	*clefF4	*	*clefG2	*	*clefG2	*	*clefF4	*	*clefF4	*	*clefG2	*	*clefG2	*	*clefG2	*
*ITrd0c0	*	*	*	*	*	*	*	*	*	*	*	*	*ITrd5c9	*	*ITrd5c9	*	*	*	*	*	*ITrd1c2	*	*ITrd1c2	*	*	*
*k[b-e-]	*	*k[b-e-]	*	*k[b-e-]	*	*k[b-e-]	*	*k[e- b-]	*	*	*k[b-e-]	*	*k[b-e-]	*	*k[b-e-]	*	*k[b-e-]	*	*k[b-e-]	*	*k[b-e-]	*	*k[b-e-]	*	*k[b-e-]	*
*B-:	*	*B-:	*	*B-:	*	*B-:	*	*B-:	*	*	*B-:	*	*B-:	*	*B-:	*	*B-:	*	*B-:	*	*B-:	*	*B-:	*	*B-:	*
*M2/4	*	*M2/4	*	*M2/4	*	*M2/4	*	*M2/4	*	*	*M2/4	*	*M2/4	*	*M2/4	*	*M2/4	*	*M2/4	*	*M2/4	*	*M2/4	*	*M2/4	*
!LO:SIC:v=niejednoznaczne metrum	!	!LO:SIC:v=niejednoznaczne metrum	!	!LO:SIC:v=niejednoznaczne metrum	!	!LO:SIC:v=niejednoznaczne metrum	!	!LO:SIC:v=niejednoznaczne metrum	!	!	!LO:SIC:v=niejednoznaczne oznaczenie metrum	!	!LO:SIC:o:v= brak oznaczenia tonacji	!	!LO:SIC:v= brak oznaczenia tonacji	!	!LO:SIC:v=niejednoznaczne oznaczenie tonacji i metra	!	!LO:SIC:v=niejednoznacznie oznaczone metrum	!	!LO:SIC:v=niejednoznaczne oznaczenie tempa	!	!LO:SIC:v=niejednoznaczne oznaczenie metrum	!	!	!
8r	.	8r	.	8r	.	8r	.	8r	.	.	8r	.	8r	.	8r	.	8r	.	16F\LL	.	8r	.	16f/LL	.	8r	.
.	.	.	.	.	.	.	.	.	.	.	.	.	.	.	.	.	.	.	16F\JJ	.	.	.	16f/JJ	.	.	.
=1	=1	=1	=1	=1	=1	=1	=1	=1	=1	=1	=1	=1	=1	=1	=1	=1	=1	=1	=1	=1	=1	=1	=1	=1	=1	=1
!LO:TX:t=Andantino	!	!LO:TX:a:t=Andantino	!	!LO:TX:t=Andantino	!	!LO:TX:a:t=Andantino	!	!LO:TX:a:t=Andantino.	!	!	!LO:TX:a:t=Andantino	!	!LO:TX:a:t=Andantino	!	!LO:TX:a:t=Andantino	!	!LO:TX:a:t=Andantino	!	!LO:TX:a:t=Andantino	!	!	!	!LO:TX:a:t=Andantino	!	!LO:TX:a:t=Andanta	!
!	!	!	!	!	!	!	!	!	!	!	!	!	!	!	!	!	!	!	!LO:SIC:o:v=niejednoznaczne umiejscowienie akcentów fgI	!	!	!	!LO:SIC:o:v=niejednoznacznie umiejscowione akcenty w clI	!	!LO:SIC:o:v=niejednoznaczne oznaczenie tempa oraz metrum	!
(<8BB-/L	p	2r	.	2r	.	2r	.	2r	.	.	2r	.	4r	.	4r	.	8BB-/L	.	8F\^L	.	(<8d/L	.	8f/^>L	.	4r	.
8AA/J)	.	.	.	.	.	.	.	.	.	.	.	.	.	.	.	.	8AA/J	.	16F\L	.	8c/J)	.	16f/L	.	.	.
.	.	.	.	.	.	.	.	.	.	.	.	.	.	.	.	.	.	.	16F\JJ	.	.	.	16f/JJ	.	.	.
8BB-/	.	.	.	.	.	.	.	.	.	.	.	.	8r	.	8r	.	8BB-/	.	8F\^L	.	8d/	.	8f/^L	.	8r	.
16BB-/LL	.	.	.	.	.	.	.	.	.	.	.	.	16B-/LL	.	16f/LL	.	16BB-/LL	.	16d\L	.	16b-\LL	.	16dd\L	.	16ddd\LL	.
16BB-/JJ	.	.	.	.	.	.	.	.	.	.	.	.	16B-/JJ	.	16f/JJ	.	16BB-/JJ	.	16d\JJ	.	16b-\JJ	.	16dd\JJ	.	16ddd\JJ	.
=2	=2	=2	=2	=2	=2	=2	=2	=2	=2	=2	=2	=2	=2	=2	=2	=2	=2	=2	=2	=2	=2	=2	=2	=2	=2	=2
4.F\	.	2r	.	2r	.	2r	.	2r	.	.	4.F\	.	4.f/	.	4.f/	.	4.F\	.	8.c\^L	.	4.a/^	.	8.cc\^L	.	(>8.ccc\L	.
.	.	.	.	.	.	.	.	.	.	.	.	.	.	.	.	.	.	.	16A\Jk	.	.	.	16a/Jk	.	16aa\Jk)	.
.	.	.	.	.	.	.	.	.	.	.	.	.	.	.	.	.	.	.	8F\	.	.	.	8f/L	.	8ff\	.
8r	.	.	.	.	.	.	.	.	.	.	8r	.	8r	.	8r	.	8r	.	16F\LL	.	8r	.	16f/L	.	8r	.
.	.	.	.	.	.	.	.	.	.	.	.	.	.	.	.	.	.	.	16F\JJ	.	.	.	16f/JJ	.	.	.
=3	=3	=3	=3	=3	=3	=3	=3	=3	=3	=3	=3	=3	=3	=3	=3	=3	=3	=3	=3	=3	=3	=3	=3	=3	=3	=3
8AA/L	.	2r	.	2r	.	2r	.	2r	.	.	2r	.	4r	.	4r	.	8AA/L	.	8F\^L	.	8c/L	.	8f/^L	.	4r	.
8BB-/J	.	.	.	.	.	.	.	.	.	.	.	.	.	.	.	.	8BB-/J	.	16F\L	.	8d/J	.	16f/L	.	.	.
.	.	.	.	.	.	.	.	.	.	.	.	.	.	.	.	.	.	.	16F\JJ	.	.	.	16f/JJ	.	.	.
8AA/	.	.	.	.	.	.	.	.	.	.	.	.	8r	.	8r	.	8AA/	.	8F\^L	.	8c/	.	8f/^L	.	8r	.
16AA/LL	.	.	.	.	.	.	.	.	.	.	.	.	16f/LL	.	16f/LL	.	16AA/LL	.	16e-\L	.	16cc\LL	.	16ee-\L	.	16eee-\LL	.
16AA/JJ	.	.	.	.	.	.	.	.	.	.	.	.	16f/JJ	.	16f/JJ	.	16AA/JJ	.	16e-\JJ	.	16cc\JJ	.	16ee-\JJ	.	16eee-\JJ	.
=4	=4	=4	=4	=4	=4	=4	=4	=4	=4	=4	=4	=4	=4	=4	=4	=4	=4	=4	=4	=4	=4	=4	=4	=4	=4	=4
4.BB-/	.	2r	.	2r	.	2r	.	2r	.	.	4.BB-/	.	4.B-/	.	4.f/	.	4.BB-/	.	8.d\^L	.	4.b-\	.	8.dd\^L	.	(>8.ddd\L	.
.	.	.	.	.	.	.	.	.	.	.	.	.	.	.	.	.	.	.	16B-\Jk	.	.	.	16b-\Jk	.	16bb-\Jk)	.
.	.	.	.	.	.	.	.	.	.	.	.	.	.	.	.	.	.	.	8F\L	.	.	.	8f/	.	8ff\	.
8r	.	.	.	.	.	.	.	.	.	.	8r	.	8r	.	8r	.	8r	.	16B-\L	.	16b-\LL	.	16b-\LL	.	8r	.
.	.	.	.	.	.	.	.	.	.	.	.	.	.	.	.	.	.	.	16B-\JJ	.	16b-\	.	16b-\JJ	.	.	.
=5	=5	=5	=5	=5	=5	=5	=5	=5	=5	=5	=5	=5	=5	=5	=5	=5	=5	=5	=5	=5	=5	=5	=5	=5	=5	=5
8D\L	.	2r	.	2r	.	2r	.	2r	.	.	2r	.	8B-L\	.	8f/L	.	8D\L	.	8B-\^L	.	(<8f/L	.	8b-\^L	.	4r	.
8E-\J	.	.	.	.	.	.	.	.	.	.	.	.	8e-/J	.	8g/J	.	8E-\J	.	16B-\L	.	8g/J	.	16b-\L	.	.	.
.	.	.	.	.	.	.	.	.	.	.	.	.	.	.	.	.	.	.	16B-\JJ	.	.	.	16b-\JJ	.	.	.
8D\	.	.	.	.	.	.	.	.	.	.	.	.	8B-/	.	8f/	.	8D\	.	8B-\^L	.	8f/)	.	8b-\^L	.	8r	.
16BB-/LL	.	.	.	.	.	.	.	.	.	.	.	.	16B-/LL	.	16f/LL	.	16BB-/LL	.	16d\L	.	16dd\LL	.	16bb-\L	.	16bb-\LL	.
16BB-/JJ	.	.	.	.	.	.	.	.	.	.	.	.	16B-/JJ	.	16f/JJ	.	16BB-/JJ	.	16d\JJ	.	16dd\JJ	.	16bb-\JJ	.	16bb-\JJ	.
=6	=6	=6	=6	=6	=6	=6	=6	=6	=6	=6	=6	=6	=6	=6	=6	=6	=6	=6	=6	=6	=6	=6	=6	=6	=6	=6
(<4.BB-/	.	2r	.	2r	.	2r	.	2r	.	.	4BB-/	.	2B-/	.	2f/	.	4.BB-/	.	4d\^	.	[4dd\	.	8.bb-\^L	.	8bb-\	.
.	.	.	.	.	.	.	.	.	.	.	.	.	.	.	.	.	.	.	.	.	.	.	.	.	8r	.
.	.	.	.	.	.	.	.	.	.	.	.	.	.	.	.	.	.	.	.	.	.	.	16aa\Jk	.	.	.
.	.	.	.	.	.	.	.	.	.	.	4r	.	.	.	.	.	.	.	16d\LL	.	16dd\LL]	.	(>16gg\LL	.	16r	.
.	.	.	.	.	.	.	.	.	.	.	.	.	.	.	.	.	.	.	16f\	.	(>16dd\	.	16ff\	.	(>16fff\LL	.
16C/LL	.	.	.	.	.	.	.	.	.	.	.	.	.	.	.	.	16C/LL	.	16e-\	.	16cc\	.	16ee-\	.	16eee-\)	.
16D\JJ)	.	.	.	.	.	.	.	.	.	.	.	.	.	.	.	.	16D\JJ	.	[16d\JJ	.	16b-\JJ)	.	[16dd\JJ)	.	[16ddd\JJ	.
=7	=7	=7	=7	=7	=7	=7	=7	=7	=7	=7	=7	=7	=7	=7	=7	=7	=7	=7	=7	=7	=7	=7	=7	=7	=7	=7
4E-\	.	2r	.	2r	.	2r	.	2r	.	.	4E-\	.	4e-/	.	4g/	.	4E-\	.	16d\LL]	.	4g/	.	16dd\LL]	.	16ddd\LL]	.
.	.	.	.	.	.	.	.	.	.	.	.	.	.	.	.	.	.	.	16c\JJ	.	.	.	16cc\JJ	.	16ccc\JJ	.
.	.	.	.	.	.	.	.	.	.	.	.	.	.	.	.	.	.	.	32f#X\LLL	.	.	.	32ff#X\LLL	.	32fff#X\LLL	.
.	.	.	.	.	.	.	.	.	.	.	.	.	.	.	.	.	.	.	32g\	.	.	.	32gg\	.	32ggg\	.
.	.	.	.	.	.	.	.	.	.	.	.	.	.	.	.	.	.	.	32e-\	.	.	.	32ee-\	.	32eee-\	.
.	.	.	.	.	.	.	.	.	.	.	.	.	.	.	.	.	.	.	32c\JJJ	.	.	.	32cc\JJJ	.	32ccc\JJJ	.
8F\L	.	.	.	.	.	.	.	.	.	.	4F\	.	8.f/L	.	8.f/L	.	8F\L	.	8.d\L	.	8.f/L	.	8.b-\L	.	8.bb-\L	.
!LO:TX:t=P:problem=mixed beam	!	!	!	!	!	!	!	!	!	!	!	!	!	!	!	!	!LO:TX:t=P:problem=mixed beam	!	!	!	!	!	!	!	!	!
8FF/J	.	.	.	.	.	.	.	.	.	.	.	.	.	.	.	.	8FF/J	.	.	.	.	.	.	.	.	.
.	.	.	.	.	.	.	.	.	.	.	.	.	16f/Jk	.	16f/Jk	.	.	.	16e-\Jk	.	16a/Jk	.	16cc\Jk	.	16ccc\Jk	.
=8	=8	=8	=8	=8	=8	=8	=8	=8	=8	=8	=8	=8	=8	=8	=8	=8	=8	=8	=8	=8	=8	=8	=8	=8	=8	=8
!	!	!	!	!LO:TX:a:t=Solo.	!	!	!	!	!	!	!	!	!	!	!	!	!	!	!	!	!	!	!	!	!	!
4.BB-/	.	2r	.	(>4.f\	Sal-	2r	.	2r	.	.	4.BB-/	.	4.B-/	.	4.f/	.	4.BB-/	.	4e-\	.	4a/	.	4cc\	.	(>4ccc\	.
.	.	.	.	.	.	.	.	.	.	.	.	.	.	.	.	.	.	.	8d\L	.	8b-\	.	8b-\	.	8bb-\)	.
8r	.	.	.	8d\	.	.	.	.	.	.	8r	.	8r	.	8r	.	8r	.	16F\L	.	8r	.	16f/LL	.	8r	.
.	.	.	.	.	.	.	.	.	.	.	.	.	.	.	.	.	.	.	16F\JJ	.	.	.	16f/JJ	.	.	.
=9	=9	=9	=9	=9	=9	=9	=9	=9	=9	=9	=9	=9	=9	=9	=9	=9	=9	=9	=9	=9	=9	=9	=9	=9	=9	=9
!	!	!	!	!	!	!	!	!	!	!	!	!	!	!	!	!	!	!	!LO:PB:g=original	!	!LO:PB:g=original	!	!LO:PB:g=original	!	!LO:PB:g=original	!
8BB-/L	.	2r	.	8d\L)	.	2r	.	2r	.	.	2r	.	4r	.	4r	.	8BB-/L	.	8F\^L	.	8d/L	.	8f/L	.	4r	.
8AA/J	.	.	.	8e-\	.	.	.	.	.	.	.	.	.	.	.	.	8AA/J	.	16F\L	.	8c/J	.	16f/L	.	.	.
.	.	.	.	.	.	.	.	.	.	.	.	.	.	.	.	.	.	.	16F\JJ	.	.	.	16f/JJ	.	.	.
8BB-/	.	.	.	8d\	.	.	.	.	.	.	.	.	8r	.	8r	.	8BB-/	.	8F\^L	.	8d/	.	8f/L	.	8r	.
16BB-/LL	.	.	.	8B-\J	.	.	.	.	.	.	.	.	16B-/LL	.	16f/LL	.	16BB-/LL	.	16d\L	.	16b-\LL	.	16dd\L	.	16ddd\LL	.
16BB-/JJ	.	.	.	.	.	.	.	.	.	.	.	.	16B-/JJ	.	16f/JJ	.	16BB-/JJ	.	16d\JJ	.	16b-\JJ	.	16dd\JJ	.	16ddd\JJ	.
=10	=10	=10	=10	=10	=10	=10	=10	=10	=10	=10	=10	=10	=10	=10	=10	=10	=10	=10	=10	=10	=10	=10	=10	=10	=10	=10
!LO:PB:g=original	!	!	!	!	!	!	!	!	!	!	!	!	!	!	!	!	!LO:PB:g=original	!	!	!	!	!	!	!	!	!
4.F\	.	4F\	Sal-	8.c\L	.	8.a\L	Sal-	(>4.ff\	Sal-	.	4.F\	.	4.f/	.	4.f/	.	4.F\	.	8.c\^L	.	4.a/	.	8.cc\^L	.	(>8.ccc\L	.
.	.	.	.	16A\Jk	.	16cc\Jk	.	.	.	.	.	.	.	.	.	.	.	.	16A\Jk	.	.	.	16a/Jk	.	16aa\Jk)	.
.	.	8F\	-ve	8F/	-ve	8a\	-ve	.	.	.	.	.	.	.	.	.	.	.	8F\	.	.	.	8f/	.	8ff\	.
8r	.	8r	.	8r	.	8r	.	8ee-\)	.	.	8r	.	8r	.	8r	.	8r	.	16F\LL	.	8r	.	16f/LL	.	8r	.
.	.	.	.	.	.	.	.	.	.	.	.	.	.	.	.	.	.	.	16F\JJ	.	.	.	16f/JJ	.	.	.
=11	=11	=11	=11	=11	=11	=11	=11	=11	=11	=11	=11	=11	=11	=11	=11	=11	=11	=11	=11	=11	=11	=11	=11	=11	=11	=11
8AA/L	.	2r	.	2r	.	2r	.	8ee-\L	.	.	2r	.	4r	.	4r	.	8AA/L	.	8F\L	.	(<8c/L	.	8f/^L	.	4r	.
8BB-/J	.	.	.	.	.	.	.	8dd\	.	.	.	.	.	.	.	.	8BB-/J	.	16F\L	.	8d/)	.	16f/L	.	.	.
.	.	.	.	.	.	.	.	.	.	.	.	.	.	.	.	.	.	.	16F\JJ	.	.	.	16f/JJ	.	.	.
8AA/	.	.	.	.	.	.	.	8ee-\	.	.	.	.	8r	.	8r	.	8AA/	.	8F\	.	8c/'J	.	8f/^L	.	8r	.
16AA/LL	.	.	.	.	.	.	.	8cc\J	.	.	.	.	16f/LL	.	16f/LL	.	16AA/LL	.	16e-\LL	.	16cc\LL	.	16ee-\L	.	16eee-\LL	.
16AA/JJ	.	.	.	.	.	.	.	.	.	.	.	.	16f/JJ	.	16f/JJ	.	16AA/JJ	.	16e-\JJ	.	16cc\JJ	.	16ee-\JJ	.	16eee-\JJ	.
=12	=12	=12	=12	=12	=12	=12	=12	=12	=12	=12	=12	=12	=12	=12	=12	=12	=12	=12	=12	=12	=12	=12	=12	=12	=12	=12
4.BB-/	.	4.B-\	Sal-	4f\	Sal-	4b-\	Sal-	8.dd\L	.	.	4.BB-/	.	4.B-/	.	4.f/	.	4.BB-/	.	8.d\L	.	4.b-\	.	8.dd\^L	.	8.ddd\L	.
.	.	.	.	.	.	.	.	16b-\Jk	.	.	.	.	.	.	.	.	.	.	16B-\Jk	.	.	.	16b-\Jk	.	16bb-\Jk	.
.	.	.	.	8d\	-ve	8b-\	-ve	8f/	-ve	.	.	.	.	.	.	.	.	.	8F\L	.	.	.	8f/	.	8ff\	.
8r	.	[8A-X\	.	8r	.	8r	.	8r	.	.	8r	.	8r	.	8r	.	8r	.	16B-\L	.	8r	.	16b-\LL	.	8r	.
.	.	.	.	.	.	.	.	.	.	.	.	.	.	.	.	.	.	.	16B-\JJ	.	.	.	16b-\JJ	.	.	.
=13	=13	=13	=13	=13	=13	=13	=13	=13	=13	=13	=13	=13	=13	=13	=13	=13	=13	=13	=13	=13	=13	=13	=13	=13	=13	=13
8D\L	.	8A-\L]	.	4r	.	4r	.	4r	.	.	2r	.	8B-L\	.	8f/L	.	8D\L	.	8B-\L	.	8f/L	.	8b-\^L	.	2r	.
8E-\J	.	8G\	.	.	.	.	.	.	.	.	.	.	8e-/J	.	8e-/J	.	8E-\J	.	16B-\L	.	8g/J	.	16b-\L	.	.	.
.	.	.	.	.	.	.	.	.	.	.	.	.	.	.	.	.	.	.	16B-\JJ	.	.	.	16b-\JJ	.	.	.
8D\	.	8A-X\J	-ve	8r	.	8r	.	8r	.	.	.	.	8B-/	.	8f/	.	8D\	.	8B-\L	.	8f/	.	8b-\^L	.	.	.
16BB-/LL	.	8F\	Re-	8d\	Re-	8b-\	Re-	8ff\	Re-	.	.	.	16B-/LL	.	16f/LL	.	16BB-/LL	.	16f\L	.	16dd\LL	.	16bb-\L	.	.	.
16BB-/JJ	.	.	.	.	.	.	.	.	.	.	.	.	16B-/JJ	.	16f/JJ	.	16BB-/JJ	.	16f\JJ	.	16dd\JJ	.	16bb-\JJ	.	.	.
=14	=14	=14	=14	=14	=14	=14	=14	=14	=14	=14	=14	=14	=14	=14	=14	=14	=14	=14	=14	=14	=14	=14	=14	=14	=14	=14
!	!	!	!	!	!	!	!	!	!	!	!	!	!	!	!LO:TX:t=P:problem=mixed beam	!	!	!	!	!	!	!	!	!	!	!
4E-\	.	4E-\	-gi-	4e-\	-gi-	4b-\	-gi-	4gg\	-gi-	.	4E-\	.	2e-/	.	2g/	.	4E-\	.	8e-\L	.	8gg\L	.	8bb-\^L	.	2r	.
!	!	!	!	!	!	!	!	!	!	!	!	!	!	!	!	!	!	!	!LO:TX:t=P:problem=mixed beam	!	!	!	!	!	!	!
.	.	.	.	.	.	.	.	.	.	.	.	.	.	.	.	.	.	.	8E-\J	.	16ff\L	.	(>16aa\L	.	.	.
.	.	.	.	.	.	.	.	.	.	.	.	.	.	.	.	.	.	.	.	.	16ee-\JJ	.	16gg\JJ	.	.	.
16E-\LL	.	8E-\	-na	8e-\	-na	8b-\	-na	8gg\	-na	.	4r	.	.	.	.	.	(>16E-\LL	.	16E-\LL	.	8ee-\L	.	8gg\L	.	.	.
16F\	.	.	.	.	.	.	.	.	.	.	.	.	.	.	.	.	16F\	.	16F\	.	.	.	.	.	.	.
16G\	.	8r	.	8r	.	8r	.	8r	.	.	.	.	.	.	.	.	16G\	.	16G\	.	16dd\L	.	16ff\L)	.	.	.
16An\JJ	.	.	.	.	.	.	.	.	.	.	.	.	.	.	.	.	16An\JJ)	.	16An\JJ	.	16cc\JJ	.	16ee-\JJ	.	.	.
=15	=15	=15	=15	=15	=15	=15	=15	=15	=15	=15	=15	=15	=15	=15	=15	=15	=15	=15	=15	=15	=15	=15	=15	=15	=15	=15
8B-\L	.	(<4BB-/	Sal-	2d\	Sal-	2b-\	Sal-	[2ff\	Sal-	.	4BB-/	.	2B-/	.	2f/	.	8B-\L	.	16B-\LL	.	(>2b-\	.	(>2dd\	.	16r	.
.	.	.	.	.	.	.	.	.	.	.	.	.	.	.	.	.	.	.	16f\	.	.	.	.	.	(>16fff\LL	.
!LO:TX:t=P:problem=mixed beam	!	!	!	!	!	!	!	!	!	!	!	!	!	!	!	!	!LO:TX:t=P:problem=mixed beam	!	!	!	!	!	!	!	!	!
8BB-/	.	.	.	.	.	.	.	.	.	.	.	.	.	.	.	.	8BB-/	.	16e-\	.	.	.	.	.	16eee-\	.
.	.	.	.	.	.	.	.	.	.	.	.	.	.	.	.	.	.	.	16d\JJ	.	.	.	.	.	16ddd\JJ	.
8D\	.	4D/)	.	.	.	.	.	.	.	.	8D\L	.	.	.	.	.	8D\	.	16c\LL	.	.	.	.	.	16ccc\LL	.
.	.	.	.	.	.	.	.	.	.	.	.	.	.	.	.	.	.	.	16B-\	.	.	.	.	.	16bb-\	.
8BB-/J	.	.	.	.	.	.	.	.	.	.	8BB-/J	.	.	.	.	.	8BB-/J	.	16A\	.	.	.	.	.	16aa\)	.
.	.	.	.	.	.	.	.	.	.	.	.	.	.	.	.	.	.	.	16B-\JJ	.	.	.	.	.	16bb-\JJ	.
=16	=16	=16	=16	=16	=16	=16	=16	=16	=16	=16	=16	=16	=16	=16	=16	=16	=16	=16	=16	=16	=16	=16	=16	=16	=16	=16
!	!	!	!	!	!	!	!	!	!	!	!	!	!LO:PB:g=original	!	!	!	!	!	!	!	!	!	!	!	!	!
4.F\	.	4F\	-ve	4c\	-ve	4a\	-ve	4ff\]	-ve	.	4F\	.	8f/L	.	8f/L	.	8F\L	.	8c\L	.	8a/L)	.	8cc\L)	.	8ccc\L	.
.	.	.	.	.	.	.	.	.	.	.	.	.	16f/L	.	16f/L	.	16F\L	.	16F\L	.	16f/L	.	16ff\L	.	16ff\L	.
.	.	.	.	.	.	.	.	.	.	.	.	.	16f/JJ	.	16f/JJ	.	16F\JJ	.	16F\JJ	.	16f/JJ	.	16ff\JJ	.	16ff\JJ	.
.	.	4r	.	4r	.	4r	.	4r	.	.	4r	.	8f/L	.	8f/L	.	8F\L	.	8F\L	.	8f/L	.	8ff\L	.	8ff\L	.
8r	.	.	.	.	.	.	.	.	.	.	.	.	16f/L	.	16f/L	.	16F\L	.	8F\J	.	16f/L	.	16ff\L	.	16ff\L	.
.	.	.	.	.	.	.	.	.	.	.	.	.	16f/JJ	.	16f/JJ	.	16F\JJ	.	.	.	16f/JJ	.	16ff\JJ	.	16ff\JJ	.
=17	=17	=17	=17	=17	=17	=17	=17	=17	=17	=17	=17	=17	=17	=17	=17	=17	=17	=17	=17	=17	=17	=17	=17	=17	=17	=17
!	!	!	!	!LO:PB:g=original	!	!	!	!	!	!	!	!	!	!	!	!	!	!	!LO:PB:g=original	!	!	!	!	!	!	!
!	!	!	!	!	!	!	!	!LO:TX:a:i:t=dolce	!	!	!	!	!	!	!	!	!	!	!	!	!	!	!	!	!	!
8F\	.	8F\	Ma-	8c\	Ma-	8a\	Ma-	8ee-\	Ma-	.	2r	.	2f/	.	2f/	.	2F\	.	8e-\L	.	8a/L	.	8ee-\L	.	8ccc\L	.
8r	.	16F\	-ter	16B-\	-ter	16b-\	-ter	16dd\	-ter	.	.	.	.	.	.	.	.	.	8d\	.	8b-\	.	8dd\	.	8bb-\	.
.	.	16F\	mi-	16B-\	mi-	16b-\	mi-	16dd\	mi-	.	.	.	.	.	.	.	.	.	.	.	.	.	.	.	.	.
!	!	!LO:PB:g=original	!	!	!	!	!	!	!	!	!	!	!	!	!	!	!	!	!	!	!	!	!	!	!	!
8F\	.	8F\	-se-	8e-\	-se-	8a\	-se-	8cc\	-se-	.	.	.	.	.	.	.	.	.	8c\	.	8a/	.	8cc\	.	8eee-\	.
8r	.	8F\	-ri-	8d\	-ri-	8b-\	-ri-	8b-\	-ri-	.	.	.	.	.	.	.	.	.	[8B-\J	.	8b-\J	.	[8b-\J	.	8ddd\J	.
=18	=18	=18	=18	=18	=18	=18	=18	=18	=18	=18	=18	=18	=18	=18	=18	=18	=18	=18	=18	=18	=18	=18	=18	=18	=18	=18
!	!	!	!	!	!	!LO:PB:g=original	!	!LO:PB:g=original	!	!	!	!	!	!	!	!	!	!	!	!	!LO:PB:g=original	!	!	!	!	!
4.F\	.	8.F\	-cor-	8.c\	-cor-	8.e-\	-cor-	8.b-\	-cor-	.	2r	.	4.f/	.	4.f/	.	4.F\	.	8.B-\L]	.	4e-/	.	8.b-\L]	.	[4ccc\	.
.	.	16F\	-di-	16c\	-di-	16e-\	-di-	16a\	-di-	.	.	.	.	.	.	.	.	.	16A\Jk	.	.	.	16a/Jk	.	.	.
.	.	8F\	-ae	8c\	-ae	8e-\	-ae	8a\	-ae	.	.	.	.	.	.	.	.	.	16A\LL	.	8e-/	.	16a/LL	.	16ccc\LL]	.
.	.	.	.	.	.	.	.	.	.	.	.	.	.	.	.	.	.	.	16F\	.	.	.	(>16f/	.	(>16ff\	.
8r	.	8r	.	8r	.	8r	.	8r	.	.	.	.	8r	.	8r	.	8r	.	16A\	.	8r	.	16a/	.	16aa\	.
.	.	.	.	.	.	.	.	.	.	.	.	.	.	.	.	.	.	.	16c\JJ	.	.	.	16cc\JJ)	.	16ccc\JJ)	.
=19	=19	=19	=19	=19	=19	=19	=19	=19	=19	=19	=19	=19	=19	=19	=19	=19	=19	=19	=19	=19	=19	=19	=19	=19	=19	=19
!	!	!	!	!	!	!	!	!	!	!	!	!	!	!	!	!	!	!	!	!	!	!	!LO:PB:g=original	!	!	!
8F\	.	8F\	Ma-	8e-\	Ma-	8a\	Ma-	8cc\	Ma-	.	2r	.	2f/	.	2f/	.	2F\	.	8e-\L	.	8a/L	.	8ee-\L	.	8ccc\L	.
8r	.	16F\	-ter	16d\	-ter	16b-\	-ter mi	16b-\	-ter	.	.	.	.	.	.	.	.	.	8d\	.	8b-\	.	8dd\	.	8bb-\	.
.	.	16F\	mi-	16d\	mi-	16b-\	-se-	16b-\	mi-	.	.	.	.	.	.	.	.	.	.	.	.	.	.	.	.	.
8F\	.	8F\	-se-	8c\	-se-	8a\	.	8ee-\	-se-	.	.	.	.	.	.	.	.	.	8c\	.	8a/	.	8cc\	.	8eee-\	.
8r	.	8F\	-ri-	8B-\	-ri-	8b-\	-ri-	8dd\	-ri-	.	.	.	.	.	.	.	.	.	8B-\J	.	8b-\J	.	8b-\J	.	8ddd\J	.
=20	=20	=20	=20	=20	=20	=20	=20	=20	=20	=20	=20	=20	=20	=20	=20	=20	=20	=20	=20	=20	=20	=20	=20	=20	=20	=20
!	!	!	!	!	!	!	!	!	!	!	!	!	!	!	!	!	!	!	!	!	!	!	!	!	!LO:PB:g=original	!
4.F\	.	8.F\	-cor-	8.B-\	-cor-	8.e-\	-cor-	8.cc\	-cor-	.	2r	.	4.f/	.	4.f/	.	4.F\	.	8.B-\L	.	4e-/	.	8.b-\L	.	4ccc\	.
.	.	16F\	-di-	16A\	-di-	16e-\	-di-	16cc\	-di-	.	.	.	.	.	.	.	.	.	16A\Jk	.	.	.	16a/Jk	.	.	.
.	.	8F\	-ae	8A\	-ae	8e-\	-ae	8cc\	-ae	.	.	.	.	.	.	.	.	.	16A\LL	.	8e-/	.	(16a/LL	.	16ccc\LL	.
.	.	.	.	.	.	.	.	.	.	.	.	.	.	.	.	.	.	.	16F\	.	.	.	16f/	.	(>16ff\	.
8r	.	8r	.	8r	.	8r	.	8r	.	.	.	.	8r	.	8r	.	8r	.	16A\	.	8r	.	16a/	.	16aa\	.
.	.	.	.	.	.	.	.	.	.	.	.	.	.	.	.	.	.	.	16c\JJ	.	.	.	16cc\JJ)	.	16ccc\JJ)	.
=21	=21	=21	=21	=21	=21	=21	=21	=21	=21	=21	=21	=21	=21	=21	=21	=21	=21	=21	=21	=21	=21	=21	=21	=21	=21	=21
!LO:PB:g=original	!	!	!	!	!	!	!	!	!	!	!LO:PB:g=original	!	!	!	!	!	!	!	!	!	!	!	!	!	!	!
2G\	.	4G\	vi-	4B-\	vi-	4d\	vi-	4b-\	vi-	f	2G\	f	2g/	.	2g/	.	2G\	.	2B-\	.	(<2d/	.	(>2b-\	.	[2bb-\	f
.	.	8G\	-ta	8B-\	-ta	8d\	-ta	8b-\	-ta	.	.	.	.	.	.	.	.	.	.	.	.	.	.	.	.	.
.	.	8G\	dul-	8B-\	dul-	8d\	dul-	8b-\	dul-	.	.	.	.	.	.	.	.	.	.	.	.	.	.	.	.	.
=22	=22	=22	=22	=22	=22	=22	=22	=22	=22	=22	=22	=22	=22	=22	=22	=22	=22	=22	=22	=22	=22	=22	=22	=22	=22	=22
4.E-\	.	4E-\	-ce-	4B-\	-ce-	4e-\	-ce-	4gg\	-ce-	.	4.E-\	.	4.e-/	.	4.g/	.	4.E-\	.	4.B-\	.	4e-/)	.	4gg\)	.	4.bb-\]	.
.	.	8E-\	-do	8B-\	-do	8e-\	-do	8gg\	-do	.	.	.	.	.	.	.	.	.	.	.	8gg\L	.	8bb-\L	.	.	.
8r	.	8r	.	8r	.	8r	.	8r	.	.	8r	.	8r	.	8r	.	8r	.	8r	.	16ff\L	.	16aa\L	.	8r	.
.	.	.	.	.	.	.	.	.	.	.	.	.	.	.	.	.	.	.	.	.	16ee-\JJ	.	16gg\JJ	.	.	.
=23	=23	=23	=23	=23	=23	=23	=23	=23	=23	=23	=23	=23	=23	=23	=23	=23	=23	=23	=23	=23	=23	=23	=23	=23	=23	=23
!	!	!	!	!	!	!	!	!	!	!	!	!	!	!	!	!	!LO:PB:g=original	!	!	!	!	!	!	!	!	!
2r	.	2r	.	(>8d\L	et	2r	.	(>8ff\L	et	.	2r	.	8f/	.	8f/	.	8F\L	.	8r	.	8r	.	8r	p	2r	.
.	.	.	.	16B-\Jk)	.	.	.	16dd\Jk)	.	.	.	.	8r	.	8r	.	8d\J	.	8f\	.	8dd\	.	8ff\	.	.	.
.	.	.	.	16r	.	.	.	16r	.	.	.	.	.	.	.	.	.	.	.	.	.	.	.	.	.	.
!	!	!	!	!LO:PB:g=original	!	!	!	!	!	!	!	!	!	!	!	!	!	!	!	!	!	!	!	!	!	!
.	.	.	.	(>8d\L	spes	.	.	(>8ff\L	spes	.	.	.	8f/	.	8f/	.	8r	.	8r	.	8r	.	8r	.	.	.
.	.	.	.	16B-\Jk)	.	.	.	16dd\Jk)	.	.	.	.	8r	.	8r	.	8d\	.	8f\	.	8dd\	.	8ff\	.	.	.
.	.	.	.	16r	.	.	.	16r	.	.	.	.	.	.	.	.	.	.	.	.	.	.	.	.	.	.
=24	=24	=24	=24	=24	=24	=24	=24	=24	=24	=24	=24	=24	=24	=24	=24	=24	=24	=24	=24	=24	=24	=24	=24	=24	=24	=24
2r	.	2r	.	(>4.d\	nos-	2r	.	(>4.ff\	nos-	.	2r	.	4f/	.	4f/	.	8r	.	8r	.	8r	.	8r	.	2r	.
.	.	.	.	.	.	.	.	.	.	.	.	.	.	.	.	.	8B-\L	.	(>8d\L	.	(>8b-\L	.	(>8dd\L	.	.	.
.	.	.	.	.	.	.	.	.	.	.	.	.	4r	.	4r	.	8d\	.	8f\	.	8dd\	.	8ff\	.	.	.
.	.	.	.	8B-\)	-tra	.	.	8dd\)	-tra	.	.	.	.	.	.	.	8B-\J	.	8d\J)	.	8b-\J)	.	8dd\J)	.	.	.
=25	=25	=25	=25	=25	=25	=25	=25	=25	=25	=25	=25	=25	=25	=25	=25	=25	=25	=25	=25	=25	=25	=25	=25	=25	=25	=25
!	!	!	!	!	!	!	!	!LO:PB:g=original	!	!	!	!	!	!	!	!	!	!	!	!	!	!	!	!	!	!
2F\	.	2F\	Sal-	2e-\	Sal-	2a\	Sal-	(>2cc\	Sal-	.	2F\^<	.	2f/	.	2f/	.	2c\	.	(>2e-\	.	(>2cc\	.	2ee-\^	.	(>2aa\^<	.
=26	=26	=26	=26	=26	=26	=26	=26	=26	=26	=26	=26	=26	=26	=26	=26	=26	=26	=26	=26	=26	=26	=26	=26	=26	=26	=26
4BB-/	.	4B-\	-ve	4d\	-ve	4b-\	-ve	4b-\)	-ve	.	4BB-/	.	4B-/	.	4f/	.	4B-\	.	4d\)	.	4b-\)	.	4dd\	.	4bb-\)	.
4r	.	4r	.	4r	.	4r	.	4r	.	.	4r	.	4r	.	4r	.	4r	.	16d\LL	.	4r	.	16dd\LL	.	16bb-\LL	.
.	.	.	.	.	.	.	.	.	.	.	.	.	.	.	.	.	.	.	16F\	.	.	.	16f/	.	16ff\	.
.	.	.	.	.	.	.	.	.	.	.	.	.	.	.	.	.	.	.	16B-\	.	.	.	16b-\	.	(>16bb-\	.
.	.	.	.	.	.	.	.	.	.	.	.	.	.	.	.	.	.	.	16c\JJ	.	.	.	16cc\JJ	.	16ccc\JJ)	.
=27	=27	=27	=27	=27	=27	=27	=27	=27	=27	=27	=27	=27	=27	=27	=27	=27	=27	=27	=27	=27	=27	=27	=27	=27	=27	=27
!	!	!LO:PB:g=original	!	!	!	!LO:PB:g=original	!	!	!	!	!	!	!	!	!	!	!	!	!	!	!	!	!	!	!	!
2G\	.	4G\	vi-	4d\	vi-	4b-\	vi-	4b-\	vi-	.	2G\	f	2g/	.	2g/	.	2G\	.	2B-\	.	2g/	.	2b-\^	.	2ddd\	f
.	.	8G\	-ta	8d\	-ta	8b-\	-ta	8b-\	-ta	.	.	.	.	.	.	.	.	.	.	.	.	.	.	.	.	.
.	.	8G\	dul-	8d\	dul-	8b-\	dul-	8b-\	dul-	.	.	.	.	.	.	.	.	.	.	.	.	.	.	.	.	.
=28	=28	=28	=28	=28	=28	=28	=28	=28	=28	=28	=28	=28	=28	=28	=28	=28	=28	=28	=28	=28	=28	=28	=28	=28	=28	=28
!	!	!	!	!	!	!	!	!	!	!	!	!	!	!	!	!	!	!	!LO:PB:g=original	!	!	!	!	!	!	!
4.E-\	.	4E-\	-ce-	4e-\	-ce-	4b-\	-ce-	4gg\	-ce-	.	4.E-\	.	4.e-/	.	4.g/	.	4.E-\	.	4.B-\	.	4b-\	.	4gg\	.	4.eee-\	.
.	.	8E-\	-do	8e-\	-do	8b-\	-do	8gg\	-do	.	.	.	.	.	.	.	.	.	.	.	(>8gg\L	.	(>8bb-\L	.	.	.
8r	.	8r	.	8r	.	8r	.	8r	.	.	8r	.	8r	.	8r	.	8r	.	8r	.	16ff\L	.	16aa\L	.	8r	.
.	.	.	.	.	.	.	.	.	.	.	.	.	.	.	.	.	.	.	.	.	16ee-\JJ)	.	16gg\JJ)	.	.	.
=29	=29	=29	=29	=29	=29	=29	=29	=29	=29	=29	=29	=29	=29	=29	=29	=29	=29	=29	=29	=29	=29	=29	=29	=29	=29	=29
2r	.	2r	.	(>8f\L	Et	(>8dd\L	Et	2r	.	.	2r	.	8f/	.	8f/	.	8F\L	.	8r	.	8r	.	8r	.	2r	.
.	.	.	.	16d\Jk)	.	16b-\Jk)	.	.	.	.	.	.	8r	.	8r	.	8d\J	.	8f\	.	8dd\	.	8ff\	.	.	.
.	.	.	.	16r	.	16r	.	.	.	.	.	.	.	.	.	.	.	.	.	.	.	.	.	.	.	.
.	.	.	.	(>8f\L	spes	(>8dd\L	spes	.	.	.	.	.	8f/	.	8f/	.	8r	.	8r	.	8r	.	8r	.	.	.
.	.	.	.	16d\Jk)	.	16b-\Jk)	.	.	.	.	.	.	8r	.	8r	.	8d\	.	8f\	.	8dd\	.	8ff\	.	.	.
.	.	.	.	16r	.	16r	.	.	.	.	.	.	.	.	.	.	.	.	.	.	.	.	.	.	.	.
=30	=30	=30	=30	=30	=30	=30	=30	=30	=30	=30	=30	=30	=30	=30	=30	=30	=30	=30	=30	=30	=30	=30	=30	=30	=30	=30
!	!	!	!	!	!	!	!	!	!	!	!	!	!	!	!	!	!	!	!	!	!LO:PB:g=original	!	!	!	!	!
2r	.	2r	.	4.f\	nos-	4.dd\	nos-	2r	.	.	2r	.	4f/	.	4f/	.	8r	.	8r	.	8r	.	8r	.	2r	.
.	.	.	.	.	.	.	.	.	.	.	.	.	.	.	.	.	8B-\L	.	8d\L	.	8b-\L	.	8dd\L	.	.	.
.	.	.	.	.	.	.	.	.	.	.	.	.	4r	.	4r	.	8d\	.	8f\	.	8dd\	.	8ff\	.	.	.
.	.	.	.	8d\	-tra	8b-\	-tra	.	.	.	.	.	.	.	.	.	8B-\J	.	8d\J	.	8b-\J	.	8dd\J	.	.	.
=31	=31	=31	=31	=31	=31	=31	=31	=31	=31	=31	=31	=31	=31	=31	=31	=31	=31	=31	=31	=31	=31	=31	=31	=31	=31	=31
2F#X\	.	2F#X\	Sal-	2c\	Sal-	2a\	Sal-	2dd\	Sal-	.	2F#X\^<	.	2f#X/	.	2anX/	.	2F#X\	.	2F#X\	.	2a/	.	2cc\^	.	2ddd\	.
=32	=32	=32	=32	=32	=32	=32	=32	=32	=32	=32	=32	=32	=32	=32	=32	=32	=32	=32	=32	=32	=32	=32	=32	=32	=32	=32
!	!	!	!	!	!	!	!	!	!	!	!	!	!	!	!LO:PB:g=original	!	!	!	!	!	!	!	!LO:PB:g=original	!	!	!
4G\	.	4G\	-ve	4B-\	-ve	8b-\	-ve	4dd\	-ve	.	4G\	.	8g/L	.	8g/L	.	4G\	.	4G\	.	4b-\	.	4b-\	.	8ddd\L	.
.	.	.	.	.	.	8g\	ad	.	.	.	.	.	16g/L	.	16g/L	.	.	.	.	.	.	.	.	.	16gg\L	.
.	.	.	.	.	.	.	.	.	.	.	.	.	16g/JJ	.	16g/JJ	.	.	.	.	.	.	.	.	.	16gg\JJ	.
4r	.	4r	.	8r	.	4g\	te	8r	.	.	4r	.	4g/	.	4g/	.	4r	.	4r	.	8r	.	8r	.	4gg\	.
.	.	.	.	8d\	ad	.	.	8b-\	ad	.	.	.	.	.	.	.	.	.	.	.	16d/LL	.	16b-\LL	.	.	.
.	.	.	.	.	.	.	.	.	.	.	.	.	.	.	.	.	.	.	.	.	16d/JJ	.	16b-\JJ	.	.	.
=33	=33	=33	=33	=33	=33	=33	=33	=33	=33	=33	=33	=33	=33	=33	=33	=33	=33	=33	=33	=33	=33	=33	=33	=33	=33	=33
!	!	!	!	!LO:PB:g=original	!	!	!	!	!	!	!	!	!	!	!	!	!	!	!	!	!	!	!	!	!	!
8r	.	8r	.	4.d\	te	2g\	cla-	4.b-\	te	.	8r	.	2g/	.	2g/	.	8r	.	8r	.	4.d/	.	4.b-\	.	2gg\	.
8G\L	.	8G\	ad	.	.	.	.	.	.	.	8G\L	.	.	.	.	.	16G\LL	.	16G\LL	.	.	.	.	.	.	.
.	.	.	.	.	.	.	.	.	.	.	.	.	.	.	.	.	16G\JJ	.	16G\JJ	.	.	.	.	.	.	.
8G\	.	8G\	te	.	.	.	.	.	.	.	8G\	.	.	.	.	.	8G\L	.	8G\L	.	.	.	.	.	.	.
8Fn\J	.	8Fn\	cla-	8d\	cla-	.	.	8bnX\	cla-	.	8Fn\J	.	.	.	.	.	8Fn\J	.	8Fn\J	.	8d/	.	8bX\	.	.	.
=34	=34	=34	=34	=34	=34	=34	=34	=34	=34	=34	=34	=34	=34	=34	=34	=34	=34	=34	=34	=34	=34	=34	=34	=34	=34	=34
4E-\	.	4E-\	-ma-	4c\	-ma-	4g\	-ma-	4cc\	-ma-	.	2E-\	.	4g/	.	4g/	.	4E-\	.	4E-\	.	4c/	.	4cc\	.	4gg\	.
8E-\L	.	8E-\	-mus	8c\	-mus	8g\	-mus	8cc\	-mus	.	.	.	8g/	.	8g/	.	8E-\	.	8E-\	.	8c/	.	8cc\	.	8gg\	.
8E-\J	.	8E-\	ad	8r	.	8g\	ad	8r	.	.	.	.	16g/LL	.	16g/LL	.	16E-\LL	.	16E-\LL	.	8r	.	8r	.	16gg\LL	.
.	.	.	.	.	.	.	.	.	.	.	.	.	16g/JJ	.	16g/JJ	.	16E-\JJ	.	16E-\JJ	.	.	.	.	.	16gg\JJ	.
=35	=35	=35	=35	=35	=35	=35	=35	=35	=35	=35	=35	=35	=35	=35	=35	=35	=35	=35	=35	=35	=35	=35	=35	=35	=35	=35
!	!	!	!	!	!	!LO:PB:g=original	!	!	!	!	!	!	!	!	!	!	!	!	!	!	!	!	!	!	!	!
4.E-\	.	4.E-\	te	8r	.	4.g\	te	8r	.	.	2E-\	.	4.g/	.	4.g/	.	4.E-\	.	4.E-\	.	8r	.	8r	.	4.gg\	.
.	.	.	.	8G/	ad	.	.	8cc#X\	ad	.	.	.	.	.	.	.	.	.	.	.	16g/LL	.	16cc#X\LL	.	.	.
.	.	.	.	.	.	.	.	.	.	.	.	.	.	.	.	.	.	.	.	.	16g/J	.	16cc#\J	.	.	.
.	.	.	.	8G/	te	.	.	8cc#\	te	.	.	.	.	.	.	.	.	.	.	.	8g/	.	8cc#\	.	.	.
8E-\	.	8E-\	cla-	8G/	cla-	8g\	cla-	8cc#\	cla-	.	.	.	8g/	.	8g/	.	8E-\	.	8E-\	.	8g/J	.	8cc#\J	.	8gg\	.
=36	=36	=36	=36	=36	=36	=36	=36	=36	=36	=36	=36	=36	=36	=36	=36	=36	=36	=36	=36	=36	=36	=36	=36	=36	=36	=36
*tremolo	*	*	*	*	*	*	*	*	*	*	*	*	*	*	*	*	*tremolo	*	*	*	*	*	*	*	*	*
8D\L	.	4D\	-ma-	4A\	-ma-	4f#X\	-ma-	4dd\	-ma-	.	4D\	.	2f#X/	.	2anX/	.	8D\L	.	8F#X\L	.	8f#X/L	.	8dd\L	.	8ff#X\L	.
8D\	.	.	.	.	.	.	.	.	.	.	.	.	.	.	.	.	8D\	.	16A\L	.	16f#/L	.	16dd\L	.	16ddd\'L	.
.	.	.	.	.	.	.	.	.	.	.	.	.	.	.	.	.	.	.	16A\JJ	.	16f#/JJ	.	16dd\JJ	.	16ddd\'JJ	.
8D\	.	4D\	-mus	4A\	-mus	4f#\	-mus	4dd\	-mus	.	4r	.	.	.	.	.	8D\	.	16A\LL	.	4f#/	.	16dd\LL	.	16ddd\LL	.
.	.	.	.	.	.	.	.	.	.	.	.	.	.	.	.	.	.	.	16F#\	.	.	.	(>16f#X/	.	16ff#\	.
8D\J	.	.	.	.	.	.	.	.	.	.	.	.	.	.	.	.	8D\J	.	16A\	.	.	.	16a/	.	16aa\	.
.	.	.	.	.	.	.	.	.	.	.	.	.	.	.	.	.	.	.	16d\JJ	.	.	.	16dd\JJ)	.	16ddd\JJ	.
=37	=37	=37	=37	=37	=37	=37	=37	=37	=37	=37	=37	=37	=37	=37	=37	=37	=37	=37	=37	=37	=37	=37	=37	=37	=37	=37
!	!LO:DY:b	!	!	!	!	!	!	!LO:PB:g=original	!	!	!	!	!LO:PB:g=original	!	!	!	!	!	!	!	!	!	!	!	!LO:PB:g=original	!
8D\L	f	4D\	ex-	4B-\	ex-	4g\	ex-	4ee-\	ex-	.	4D\	.	2g/	.	2b-\	.	8D\L	.	8e-\L	.	8g/L	.	8ee-\L	.	8eee-\L	.
8D\	.	.	.	.	.	.	.	.	.	.	.	.	.	.	.	.	8D\	.	16B-\L	.	16g/L	.	16ee-\'L	.	16eee-\'L	.
.	.	.	.	.	.	.	.	.	.	.	.	.	.	.	.	.	.	.	16B-\JJ	.	16g/JJ	.	16ee-\'JJ	.	16eee-\'JJ	.
!	!	!	!	!	!	!LO:SIC:o:v= tekst słowny błędnie "i" zamiast "u"	!	!	!	!	!	!	!	!	!	!	!	!	!	!	!	!	!	!	!	!
8D\	.	8D\	-u-	8B-\	-u-	8g\	-i-	8ee-\	-u-	.	4r	.	.	.	.	.	8D\	.	16B-\LL	.	4g/	.	16ee-\LL	.	16eee-\LL	.
.	.	.	.	.	.	.	.	.	.	.	.	.	.	.	.	.	.	.	16G\	.	.	.	(>16g/	.	(>16gg\	.
8D\J	.	8D\	-les	8B-\	-les	8g\	-les	8ee-\	-les	.	.	.	.	.	.	.	8D\J	.	16B-\	.	.	.	16b-\	.	16bb-\	.
.	.	.	.	.	.	.	.	.	.	.	.	.	.	.	.	.	.	.	16e-\JJ	.	.	.	16ee-\JJ)	.	16eee-\JJ)	.
=38	=38	=38	=38	=38	=38	=38	=38	=38	=38	=38	=38	=38	=38	=38	=38	=38	=38	=38	=38	=38	=38	=38	=38	=38	=38	=38
!	!	!LO:PB:g=original	!	!	!	!	!	!	!	!	!	!	!	!	!	!	!LO:PB:g=original	!	!LO:PB:g=original	!	!	!	!	!	!	!
8D\L	.	4D\	fi-	4c\	fi-	4a\	fi-	4ff#X\	fi-	.	4D\	.	2f#X/	.	2anX/	.	8D\L	.	8f#X\L	.	8a/L	.	8ff#X\L	.	8fff#X\L	.
8D\	.	.	.	.	.	.	.	.	.	.	.	.	.	.	.	.	8D\	.	(>16c\L	.	16a/L	.	16ff#\'L	.	16fff#\'L	.
.	.	.	.	.	.	.	.	.	.	.	.	.	.	.	.	.	.	.	16c\JJ	.	16a/JJ	.	16ff#\'JJ	.	16fff#\'JJ	.
8D\	.	8D\	-li-	8c\	-li-	8a\	-li-	8ff#\	-li-	.	4r	.	.	.	.	.	8D\	.	16c\LL	.	4a/	.	16ff#\LL	.	16fff#\LL	.
.	.	.	.	.	.	.	.	.	.	.	.	.	.	.	.	.	.	.	16A\	.	.	.	(>16a/	.	(>16aa\	.
8D\J	.	8D\	-i	8c\	-i	8a\	-i	8ff#\	-i	.	.	.	.	.	.	.	8D\J	.	16c\)	.	.	.	16cc\	.	16ccc\	.
.	.	.	.	.	.	.	.	.	.	.	.	.	.	.	.	.	.	.	16f#\JJ	.	.	.	16ff#\JJ)	.	16fff#\JJ)	.
=39	=39	=39	=39	=39	=39	=39	=39	=39	=39	=39	=39	=39	=39	=39	=39	=39	=39	=39	=39	=39	=39	=39	=39	=39	=39	=39
!LO:PB:g=original	!	!	!	!	!	!	!	!	!	!	!	!	!	!	!	!	!	!	!	!	!	!	!	!	!	!
8D\L	.	2D\	E-	(>4d\	E-	2b-\	E-	2gg\	E-	.	[2D\	.	2g/	.	2b-\	.	8D\L	.	8g\L	.	8b-\L	.	8gg\L	.	8ggg\L	.
8D\	.	.	.	.	.	.	.	.	.	.	.	.	.	.	.	.	8D\	.	(>16d\L	.	16b-\L	.	16gg\'L	.	16ggg\'L	.
.	.	.	.	.	.	.	.	.	.	.	.	.	.	.	.	.	.	.	16d\JJ	.	16b-\JJ	.	16gg\'JJ	.	16ggg\'JJ	.
8D\	.	.	.	4c#X\)	.	.	.	.	.	.	.	.	.	.	.	.	8D\	.	16B-\LL	.	4b-\	.	16gg\LL	.	16ggg\LL	.
.	.	.	.	.	.	.	.	.	.	.	.	.	.	.	.	.	.	.	16c#X\	.	.	.	(>16cc#X\	.	(>16ccc#X\	.
8D\J	.	.	.	.	.	.	.	.	.	.	.	.	.	.	.	.	8D\J	.	16en\	.	.	.	16eeX\	.	16eeen\	.
.	.	.	.	.	.	.	.	.	.	.	.	.	.	.	.	.	.	.	16g\JJ)	.	.	.	16gg\JJ)	.	16ggg\JJ)	.
*Xtremolo	*	*	*	*	*	*	*	*	*	*	*	*	*	*	*	*	*	*	*	*	*	*	*	*	*	*
=40	=40	=40	=40	=40	=40	=40	=40	=40	=40	=40	=40	=40	=40	=40	=40	=40	=40	=40	=40	=40	=40	=40	=40	=40	=40	=40
(>4D\	.	4.D\	-vae	4.d\	-vae	4.a\	-vae	4.ff#X\	-vae	.	4.D\]	.	4.f#X/	.	4.anX/	.	4D\	.	4d\	.	4.a/	.	4.ff#X\	.	4.fff#X\	.
!	!	!	!	!	!	!	!	!	!	!	!	!	!	!	!	!	!LO:SIC:s:v=szesnastki za wysoko	!	!	!	!	!	!	!	!	!
16DLL\	.	.	.	.	.	.	.	.	.	.	.	.	.	.	.	.	(>16E-\LL	.	16d\LL	.	.	.	.	.	.	.
16C/	.	.	.	.	.	.	.	.	.	.	.	.	.	.	.	.	16D\	.	16c\	.	.	.	.	.	.	.
16BB-/	.	8r	.	8r	.	8r	.	8r	.	.	8r	.	8r	.	8r	.	16C/	.	16B-\	.	8r	.	8r	.	8r	.
16AA/JJ)	.	.	.	.	.	.	.	.	.	.	.	.	.	.	.	.	16BB-/JJ)	.	16A\JJ	.	.	.	.	.	.	.
=41	=41	=41	=41	=41	=41	=41	=41	=41	=41	=41	=41	=41	=41	=41	=41	=41	=41	=41	=41	=41	=41	=41	=41	=41	=41	=41
!	!	!	!	!	!	!	!	!	!	!	!	!	!	!	!	!	!	!	!	!	!LO:PB:g=original	!	!	!	!	!
8GG/	.	2r	.	2r	.	2r	.	(>8dd\L	Ad	.	2r	.	8r	.	8r	p	8GG/	.	8G\	.	8r	p	8r	p	8r	p
8r	.	.	.	.	.	.	.	16b-\Jk)	.	.	.	.	8g/	.	8g/	.	8r	.	8r	.	8b-\	.	8dd\	.	8ddd\	.
.	.	.	.	.	.	.	.	16r	.	.	.	.	.	.	.	.	.	.	.	.	.	.	.	.	.	.
8GG/	.	.	.	.	.	.	.	8dd\L	te	.	.	.	8r	.	8r	.	8GG/	.	8G\	.	8r	.	8r	.	8r	.
8r	.	.	.	.	.	.	.	16b-\Jk	.	.	.	.	8g/	.	8g/	.	8r	.	8r	.	8b-\	.	8dd\	.	8ddd\	.
.	.	.	.	.	.	.	.	16r	.	.	.	.	.	.	.	.	.	.	.	.	.	.	.	.	.	.
=42	=42	=42	=42	=42	=42	=42	=42	=42	=42	=42	=42	=42	=42	=42	=42	=42	=42	=42	=42	=42	=42	=42	=42	=42	=42	=42
!	!	!	!	!	!	!	!	!	!	!	!	!	!	!	!	!	!	!	!	!	!	!	!LO:PB:g=original	!	!	!
8C\	.	2r	.	2r	.	8g\L	Ad	4.ee-\	Sus-	.	2r	.	8r	.	8r	.	8C/	.	8C/	.	8r	.	8r	.	8r	.
8r	.	.	.	.	.	16e-\Jk	.	.	.	.	.	.	8g/	.	8g/	.	8r	.	8r	.	8cc\	.	8ee-\	.	8eee-\	.
.	.	.	.	.	.	16r	.	.	.	.	.	.	.	.	.	.	.	.	.	.	.	.	.	.	.	.
8C\	.	.	.	.	.	8g\L	te	.	.	.	.	.	8r	.	8r	.	8C/	.	8C/	.	8r	.	8r	.	8r	.
8r	.	.	.	.	.	16e-\Jk	.	8dd\	-pi-	.	.	.	8g/	.	8g/	.	8r	.	8r	.	8b-\	.	8dd\	.	8ddd\	.
.	.	.	.	.	.	16r	.	.	.	.	.	.	.	.	.	.	.	.	.	.	.	.	.	.	.	.
=43	=43	=43	=43	=43	=43	=43	=43	=43	=43	=43	=43	=43	=43	=43	=43	=43	=43	=43	=43	=43	=43	=43	=43	=43	=43	=43
!	!	!	!	!LO:PB:g=original	!	!	!	!	!	!	!	!	!	!	!	!	!	!	!	!	!	!	!	!	!	!
!	!	!	!	!LO:SIC:o:v= 1 błędnie ósemka z kropką	!	!	!	!	!	!	!	!	!	!	!	!	!	!	!	!	!	!	!	!	!	!
!	!	!	!	!LO:N:vis=8.	!	!	!	!	!	!	!	!	!	!	!	!	!	!	!	!	!	!	!	!	!	!
8AA/	.	2r	.	(>8c\L	Ad	4.a\	Sus-	4cc\	-ra-	.	2r	.	8r	.	8r	.	8AA/	.	8AA/	.	8r	.	8r	.	8r	.
8r	.	.	.	16A\Jk)	.	.	.	.	.	.	.	.	8e-/	.	8e-/	.	8r	.	8r	.	8ee-\	.	8cc\	.	8ccc\	.
.	.	.	.	16r	.	.	.	.	.	.	.	.	.	.	.	.	.	.	.	.	.	.	.	.	.	.
8AA/	.	.	.	(>8c\L	te	.	.	8cc\	-mus	.	.	.	8r	.	8r	.	8AA/	.	8AA/	.	8r	.	8r	.	8r	.
8r	.	.	.	16A\Jk)	.	8g\	-pi-	8r	.	.	.	.	8e-/	.	8e-/	.	8r	.	8r	.	8ee-\	.	8cc\	.	8ccc\	.
.	.	.	.	16r	.	.	.	.	.	.	.	.	.	.	.	.	.	.	.	.	.	.	.	.	.	.
=44	=44	=44	=44	=44	=44	=44	=44	=44	=44	=44	=44	=44	=44	=44	=44	=44	=44	=44	=44	=44	=44	=44	=44	=44	=44	=44
8D\	.	8F#X\L	Ad	4.d\	Sus-	4a\	-ra-	2r	.	.	2r	.	8r	.	8r	.	8D\	.	8D\	.	8r	.	8r	.	8r	.
8r	.	16D\Jk	.	.	.	.	.	.	.	.	.	.	8d/	.	8d/	.	8r	.	8r	.	8f#X/	.	8a/	.	8aa\	.
.	.	16r	.	.	.	.	.	.	.	.	.	.	.	.	.	.	.	.	.	.	.	.	.	.	.	.
8D\	.	8F#\L	te	.	.	8a\	-mus	.	.	.	.	.	8r	.	8r	.	8D\	.	8D\	.	8r	.	8r	.	8r	.
8r	.	16D\Jk	.	8c\	-pi-	8r	.	.	.	.	.	.	8d/	.	8d/	.	8r	.	8r	.	8f#/	.	8a/	.	8aa\	.
.	.	16r	.	.	.	.	.	.	.	.	.	.	.	.	.	.	.	.	.	.	.	.	.	.	.	.
=45	=45	=45	=45	=45	=45	=45	=45	=45	=45	=45	=45	=45	=45	=45	=45	=45	=45	=45	=45	=45	=45	=45	=45	=45	=45	=45
!	!	!	!	!	!	!LO:PB:g=original	!	!	!	!	!	!	!	!	!	!	!	!	!	!	!	!	!	!	!	!
8GG/	.	4.G\	Sus-	4B-\	-ra-	2r	.	[2b-\	ge-	.	2r	.	8r	.	8r	.	8GG/	.	8GG/	.	8r	.	8r	.	8r	.
8r	.	.	.	.	.	.	.	.	.	.	.	.	8d/	.	8d/	.	8r	.	8r	.	8g/	.	8b-\	.	8bb-\	.
8G\	.	.	.	8B-\	-mus	.	.	.	.	.	.	.	8r	.	8r	.	8G\	.	8G\	.	8r	.	8r	.	8r	.
8r	.	8Fn\	-pi-	8r	.	.	.	.	.	.	.	.	8g/	.	8g/	.	8r	.	8r	.	8g/	.	8b-\	.	8bb-\	.
=46	=46	=46	=46	=46	=46	=46	=46	=46	=46	=46	=46	=46	=46	=46	=46	=46	=46	=46	=46	=46	=46	=46	=46	=46	=46	=46
8E-\	.	4E-\	-ra-	2r	.	[2g\	ge-	2b-\]	.	.	2r	.	8r	.	8r	.	8E-\	.	8E-\	.	8r	.	8r	.	8r	.
8r	.	.	.	.	.	.	.	.	.	.	.	.	8e-/	.	8g/	.	8r	.	8r	.	8b-\	.	8gg\	.	8bb-\	.
!	!	!	!	!	!	!	!	!	!	!	!	!	!	!	!LO:PB:g=original	!	!	!	!	!	!	!	!	!	!	!
8E-\	.	8E-\	-mus	.	.	.	.	.	.	.	.	.	8r	.	8r	.	8E-\	.	8E-\	.	8r	.	8r	.	8r	.
8r	.	8r	.	.	.	.	.	.	.	.	.	.	8e-/	.	8g/	.	8r	.	8r	.	8b-\	.	8gg\	.	8bb-\	.
=47	=47	=47	=47	=47	=47	=47	=47	=47	=47	=47	=47	=47	=47	=47	=47	=47	=47	=47	=47	=47	=47	=47	=47	=47	=47	=47
!	!	!	!	!	!	!	!	!	!	!	!	!	!	!	!	!	!	!	!LO:PB:g=original	!	!	!	!	!	!LO:PB:g=original	!
8C/	.	2r	.	[2e-\	ge-	2g\_	.	[2cc\	.	.	2r	.	8r	.	8r	.	8C/	.	8C/	.	8r	.	8r	.	8r	.
8r	.	.	.	.	.	.	.	.	.	.	.	.	8e-/	.	8g/	.	8r	.	8r	.	8ee-\	.	8gg\	.	8eee-\	.
8C/	.	.	.	.	.	.	.	.	.	.	.	.	8r	.	8r	.	8C/	.	8C/	.	8r	.	8r	.	8r	.
8r	.	.	.	.	.	.	.	.	.	.	.	.	8e-/	.	8g/	.	8r	.	8r	.	8ee-\	.	8gg\	.	8eee-\	.
=48	=48	=48	=48	=48	=48	=48	=48	=48	=48	=48	=48	=48	=48	=48	=48	=48	=48	=48	=48	=48	=48	=48	=48	=48	=48	=48
8C/	.	2C/	ge-	2e-\]	.	2g\]	.	2cc\]	.	.	2r	.	8r	.	8r	.	8C/	.	8C/	.	8r	.	8r	.	8r	.
8r	.	.	.	.	.	.	.	.	.	.	.	.	8e-/	.	8g/	.	8r	.	8r	.	8ee-\	.	8gg\	.	8eee-\	.
8C/	.	.	.	.	.	.	.	.	.	.	.	.	8r	.	8r	.	8C/	.	8C/	.	8r	.	8r	.	8r	.
8r	.	.	.	.	.	.	.	.	.	.	.	.	8e-/	.	8g/	.	8r	.	8r	.	8ee-\	.	8gg\	.	8eee-\	.
=49	=49	=49	=49	=49	=49	=49	=49	=49	=49	=49	=49	=49	=49	=49	=49	=49	=49	=49	=49	=49	=49	=49	=49	=49	=49	=49
!	!	!	!	!	!	!	!	!LO:PB:g=original	!	!	!	!	!	!	!	!	!	!	!	!	!	!	!	!	!	!
4C/	.	4C/	-men-	4A\	-men-	4f#X\	-men-	4ee-\	-men-	.	2r	.	4e-/	.	4e-/	.	4C/	.	4C/	.	4a/	.	4ff#X\	.	(>4eee-\	.
8BB-/	.	8BB-/	-tes	8B-\	-tes	8g\	-tes	8dd\	-tes	.	.	.	8g/	.	8g/	.	8BB-/	.	8BB-/	.	8b-\	.	8gg\	.	8ddd\)	.
8BB-/	.	8BB-/	et	8d\	et	8g\	et	8gg\	et	.	.	.	8r	.	8r	.	8BB-/	.	8BB-/	.	8dd\	.	8gg\	.	8ggg\	.
=50	=50	=50	=50	=50	=50	=50	=50	=50	=50	=50	=50	=50	=50	=50	=50	=50	=50	=50	=50	=50	=50	=50	=50	=50	=50	=50
!LO:PB:g=original	!	!	!	!	!	!	!	!	!	!	!	!	!	!	!	!	!LO:PB:g=original	!	!	!	!LO:PB:g=original	!	!	!	!	!
[4AA/	.	4AA/	flen-	4c\	flen-	4cc\	flen-	(>4gg\	flen-	.	4r	.	4r	.	4r	.	[4AA/	.	[4AA/	.	4.cc\	.	4gg\	.	(>4ggg\	.
8AA/]	.	8AA/	-tes	8c\	-tes	8cc\	-tes	8ff#X\)	-tes	.	8r	.	8r	.	8r	.	8AA/]	.	8AA/]	.	.	.	8ff#X\	.	8fff#X\)	f
*	*	*	*	*	*	*	*	*	*	*	*	*	*	*	*	*	*Xtremolo	*	*	*	*	*	*	*	*	*
16C/LL	.	8C/	ge-	8A\	ge-	8f#X\	ge-	8ee-\	ge-	.	8C/	.	16e-/LL	.	16e-/LL	.	16C/LL	.	16C/LL	.	16f#X/LL	.	16ee-\LL	.	16eee-\LL	.
16C/JJ	.	.	.	.	.	.	.	.	.	.	.	.	16e-/JJ	.	16e-/JJ	.	16C/JJ	.	16C/JJ	.	16f#/JJ	.	16ee-\JJ	.	16eee-\JJ	.
=51	=51	=51	=51	=51	=51	=51	=51	=51	=51	=51	=51	=51	=51	=51	=51	=51	=51	=51	=51	=51	=51	=51	=51	=51	=51	=51
!	!	!LO:PB:g=original	!	!	!	!	!	!	!	!	!LO:PB:g=original	!	!	!	!	!	!	!	!	!	!	!	!	!	!	!
4C/	.	4C/	-men-	4A\	-men-	4f\	-men-	4ee-\	-men-	.	(<4C/	.	4e-/	.	4e-/	.	(<4C/	.	4C/	.	4fny/	.	(>4ee-\	.	4eee-\	.
8BB-/	.	8BB-/	-tes	8B-\	-tes	8g\	-tes	8dd\	-tes	.	8BB-/)	.	8g/	.	8g/	.	8BB-/)	.	8BB-/	.	8g/	.	8dd\)	.	8ddd\	.
16BB-/LL	.	8BB-/	et	8d\	et	8g\	et	8gg\	et	.	8BB-/	.	8r	.	8r	.	16BB-/LL	.	16BB-/LL	.	16dd\LL	.	16gg\LL	.	16ggg\LL	.
16BB-/JJ	.	.	.	.	.	.	.	.	.	.	.	.	.	.	.	.	16BB-/JJ	.	16BB-/JJ	.	16dd\JJ	.	16gg\JJ	.	16ggg\JJ	.
=52	=52	=52	=52	=52	=52	=52	=52	=52	=52	=52	=52	=52	=52	=52	=52	=52	=52	=52	=52	=52	=52	=52	=52	=52	=52	=52
[4AA/	.	4AA/	flen-	4c\	flen-	4cc\	flen-	4gg\	flen-	.	4.AA/	.	2r	.	2r	.	[4AA/	.	4AA/	.	4.cc\	.	(>4gg\	.	4ggg\	.
8AA/]	.	8AA/	-tes	8c\	-tes	8cc\	-tes	8ff#X\	-tes	.	.	.	.	.	.	.	8AA/]	.	8AA/	.	.	.	8ff#X\)	.	8fff#X\	.
!	!LO:DY:b	!	!	!	!	!	!	!	!	!	!	!	!	!	!	!	!	!	!	!	!	!	!	!	!	!
8D\	pp	8D\	in	8r	.	8r	.	8r	.	.	8r	.	.	.	.	.	8D\	p	8r	.	8r	.	8r	.	8r	.
=53	=53	=53	=53	=53	=53	=53	=53	=53	=53	=53	=53	=53	=53	=53	=53	=53	=53	=53	=53	=53	=53	=53	=53	=53	=53	=53
!	!	!	!	!LO:PB:g=original	!	!	!	!	!	!	!	!	!	!	!	!	!	!	!	!	!	!	!LO:PB:g=original	!	!	!
!	!	!	!	!	!	!	!	!	!	!LO:DY:a	!	!	!	!	!	!	!	!	!	!	!	!	!	!	!	!
4G\	.	4G\	hac	4r	.	4r	.	4r	.	pp	2r	.	2r	.	2r	.	4G\	.	2r	.	2r	.	2r	.	2r	.
8.GG/L	.	8.GG/	.	8r	.	8r	.	8r	.	.	.	.	.	.	.	.	8.GG/L	.	.	.	.	.	.	.	.	.
.	.	.	.	8e-\	in	8g\	in	8cc\	in	.	.	.	.	.	.	.	.	.	.	.	.	.	.	.	.	.
16GG/Jk	.	16GG/	la-	.	.	.	.	.	.	.	.	.	.	.	.	.	16GG/Jk	.	.	.	.	.	.	.	.	.
=54	=54	=54	=54	=54	=54	=54	=54	=54	=54	=54	=54	=54	=54	=54	=54	=54	=54	=54	=54	=54	=54	=54	=54	=54	=54	=54
4GG/	.	4GG/	-chry-	4e-\	hac	4g\	hac	4cc\	hac	.	2r	.	2r	.	2r	.	4GG/	.	(>2e-\	pp	2g/	pp	2cc\	p	2r	.
!	!	!LO:SIC:o:v= tekst słowny - brak końcówki "rum"	!	!	!	!	!	!	!	!	!	!	!	!	!	!	!	!	!	!	!	!	!	!	!	!
4GG/	.	4GG/	-ma	8.e-\	la-	8.g\	la-	8.cc\	la-	.	.	.	.	.	.	.	4GG/	.	.	.	.	.	.	.	.	.
.	.	.	.	16e-\	-chrÿ-	16g\	-chry-	16cc\	-chry-	.	.	.	.	.	.	.	.	.	.	.	.	.	.	.	.	.
=55	=55	=55	=55	=55	=55	=55	=55	=55	=55	=55	=55	=55	=55	=55	=55	=55	=55	=55	=55	=55	=55	=55	=55	=55	=55	=55
!	!	!	!	!	!	!LO:PB:g=original	!	!	!	!	!	!	!	!	!	!	!	!	!	!	!	!	!	!	!	!
[2GG/	.	[2GG/	val-	4d\	-ma-	4g\	-ma-	8.cc\L	-ma-	.	2r	.	2r	.	2r	.	[2GG/	.	2d\)	.	2g/	.	8.cc\L	.	2r	.
.	.	.	.	.	.	.	.	16b-\Jk	.	.	.	.	.	.	.	.	.	.	.	.	.	.	16b-\Jk	.	.	.
.	.	.	.	4d\	-rum	4g\	-rum	[4b-\	-rum	.	.	.	.	.	.	.	.	.	.	.	.	.	4b-\	.	.	.
=56	=56	=56	=56	=56	=56	=56	=56	=56	=56	=56	=56	=56	=56	=56	=56	=56	=56	=56	=56	=56	=56	=56	=56	=56	=56	=56
2GG/]	.	2GG/]	.	4c\	.	4f#X\	val-	4b-\]	val-	.	2r	.	2r	.	2r	.	2GG/]	.	4c\	.	4f#X/	.	4b-\	.	2r	.
.	.	.	.	8.c\L	val-	8.f#\L	.	8.a\L	.	.	.	.	.	.	.	.	.	.	8.c\L	.	8.f#/L	.	8.a/L	.	.	.
.	.	.	.	16B-\Jk	.	16g\Jk	.	16g\Jk	.	.	.	.	.	.	.	.	.	.	16B-\Jk	.	16g/Jk	.	16g/Jk	.	.	.
=57	=57	=57	=57	=57	=57	=57	=57	=57	=57	=57	=57	=57	=57	=57	=57	=57	=57	=57	=57	=57	=57	=57	=57	=57	=57	=57
8GG/L	<	4GG/	-le	4B-\	-le	4g\	-le	4g\	-le.	.	2r	.	8r	.	8r	.	8GG/L	.	8B-\	.	8g/L	.	8g/L	f	8r	f
!LO:TX:t=P:problem=mixed beam	!	!	!	!	!	!	!	!	!	!	!	!	!	!	!	!	!LO:TX:t=P:problem=mixed beam	!	!	!	!	!	!	!	!	!
16G\L	.	.	.	.	.	.	.	.	.	.	.	.	16g/LL	.	16g/LL	.	16G\L	.	16G\LL	.	16g/L	.	16gg\L	.	16gg\LL	.
16G\JJ	.	.	.	.	.	.	.	.	.	.	.	.	16g/JJ	.	16g/JJ	.	16G\JJ	.	16G\JJ	.	16g/JJ	.	16gg\JJ	.	16gg\JJ	.
8G\L	[	4r	.	4r	.	4r	.	4r	.	.	.	.	8g/L	.	8g/L	.	8G\L	.	8G\L	.	8g/L	.	8gg\L	.	8gg\L	.
8G\J	.	.	.	.	.	.	.	.	.	.	.	.	8g/J	.	8g/J	.	8G\J	.	8G\J	.	8g/J	.	16gg\L	.	8gg\J	.
.	.	.	.	.	.	.	.	.	.	.	.	.	.	.	.	.	.	.	.	.	.	.	16gg\JJ	.	.	.
=58	=58	=58	=58	=58	=58	=58	=58	=58	=58	=58	=58	=58	=58	=58	=58	=58	=58	=58	=58	=58	=58	=58	=58	=58	=58	=58
!	!	!	!	!	!	!	!	!LO:PB:g=original	!	!	!	!	!LO:PB:g=original	!	!	!	!	!	!	!	!	!	!	!	!	!
!	!LO:DY:b	!	!	!	!	!	!	!	!	!	!	!	!	!	!	!	!	!	!	!	!	!	!	!	!	!
8E-\L	f	4.E-\	E-	4.B-\	E-	4.g\	E-	4.gg\	E-	.	4.E-\	.	8e-/L	.	8g/L	.	8E-\L	.	8E-\L	.	8b-\L	.	8gg\L	.	8gg\L	.
16E-\L	.	.	.	.	.	.	.	.	.	.	.	.	16e-/L	.	16g/L	.	16E-\L	.	16E-\L	.	16b-\L	.	16gg\L	.	16gg\L	.
16E-\JJ	.	.	.	.	.	.	.	.	.	.	.	.	16e-/JJ	.	16g/JJ	.	16E-\JJ	.	16E-\JJ	.	16b-\JJ	.	16gg\JJ	.	16gg\JJ	.
8E-\L	.	.	.	.	.	.	.	.	.	.	.	.	8e-/	.	8g/	.	8E-\L	.	8E-\L	.	8b-\L	.	8gg\L	.	8gg\L	.
8D\J	.	8D\	-ja	8Bn\	-ja	8g\	-ja	8ff\	-ja	.	8D\	.	8g/	.	8g/	.	8D\J	.	8D\J	.	8bX\J	.	8ff\J	.	8ff\J	.
=59	=59	=59	=59	=59	=59	=59	=59	=59	=59	=59	=59	=59	=59	=59	=59	=59	=59	=59	=59	=59	=59	=59	=59	=59	=59	=59
!	!	!	!	!	!	!	!	!	!	!	!	!	!	!	!	!	!	!	!LO:PB:g=original	!	!	!	!	!	!	!
4.C/	.	4C/	er-	4c\	er-	4g\	er-	4ee-\	er-	.	4.C/	.	4.g/	.	4.g/	.	4.C/	.	4.C/	.	4.cc\	.	4.ee-\	.	4.ee-\	.
.	.	8C/	-go	8c\	-go	8g\	-go	8ee-\	-go	.	.	.	.	.	.	.	.	.	.	.	.	.	.	.	.	.
8C#X/	.	8r	.	8r	.	8r	.	8r	.	.	8C#X/	.	8g/	.	8g/	.	8C#X/	.	8C#X/	.	8b-X\	.	8eenX\	.	8een\	.
=60	=60	=60	=60	=60	=60	=60	=60	=60	=60	=60	=60	=60	=60	=60	=60	=60	=60	=60	=60	=60	=60	=60	=60	=60	=60	=60
8D\L	.	4.D/	E-	4.B-X\	E-	4.f\	E-	4.ff\	E-	.	4.D\	.	8f/L	.	8f/L	.	8D\L	.	8D\L	.	8b-\L	.	8ff\L	.	8ff\L	.
16D\L	.	.	.	.	.	.	.	.	.	.	.	.	16f/L	.	16f/L	.	16D\L	.	16D\L	.	16b-\L	.	16ff\L	.	16ff\L	.
16D\JJ	.	.	.	.	.	.	.	.	.	.	.	.	16f/JJ	.	16f/JJ	.	16D\JJ	.	16D\JJ	.	16b-\JJ	.	16ff\JJ	.	16ff\JJ	.
8DL\	.	.	.	.	.	.	.	.	.	.	.	.	8f/L	.	8f/L	.	8D\L	.	8DL\	.	8b-\L	.	8ff\L	.	8ff\L	.
8Cn/J	.	8C/	-ja	8A\	-ja	8f\	-ja	8ee-\	-ja	.	8Cn/	.	8f/J	.	8f/J	.	8Cn/J	.	8Cn/J	.	8a/J	.	8ee-X\J	.	8ee-X\J	.
=61	=61	=61	=61	=61	=61	=61	=61	=61	=61	=61	=61	=61	=61	=61	=61	=61	=61	=61	=61	=61	=61	=61	=61	=61	=61	=61
!LO:PB:g=original	!	!	!	!	!	!	!	!	!	!	!	!	!	!	!	!	!	!	!	!	!LO:PB:g=original	!	!	!	!	!
4.BB-/	.	4BB-/	er-	4B-\	er-	4f\	er-	4dd\	er-	.	4.BB-/	.	4.f/	.	4.f/	.	4.BB-/	.	4.BB-/	.	4.b-\	.	4.dd\	.	4.dd\	.
.	.	8BB-/	-go	8B-\	-go	8f\	-go	8dd\	-go	.	.	.	.	.	.	.	.	.	.	.	.	.	.	.	.	.
8BBn/	.	8r	.	8r	.	8r	.	8r	.	.	8BBn/	.	8f/	.	8f/	.	8BBn/	.	8BBn/	.	8a-X/	.	8dd\	.	8ddd\	.
=62	=62	=62	=62	=62	=62	=62	=62	=62	=62	=62	=62	=62	=62	=62	=62	=62	=62	=62	=62	=62	=62	=62	=62	=62	=62	=62
!	!	!LO:PB:g=original	!	!LO:PB:g=original	!	!	!	!	!	!	!	!	!	!	!	!	!LO:PB:g=original	!	!	!	!	!	!	!	!LO:PB:g=original	!
8C/L	.	8C/	Ad-	8G/	Ad-	8e-\	Ad-	8ee-\	Ad-	.	8C/L	.	8e-/L	.	8e-/L	.	8CL/	.	8CL/	.	2g/	.	8ee-\L	.	8eee-\L	.
8D\	.	8D/	-vo-	8Bn\	-vo-	8f\	-vo-	8dd\	-vo-	.	8D\	.	8f/	.	8f/	.	8D\	.	8D\	.	.	.	8dd\	.	8ddd\	.
8E-\	.	8E-\	-ca-	8c\	-ca-	8g\	-ca-	8.cc\	-ca-	.	8E-\	.	8g/	.	8g/	.	8E-\	.	8E-\	.	.	.	8.cc\	.	8.ccc\	.
8En\J	.	8En\	-ta	8c\	-ta	8g\	-ta	.	.	.	8En\J	.	8g/J	.	8g/J	.	8En\J	.	8En\J	.	.	.	.	.	.	.
.	.	.	.	.	.	.	.	16b-\	-ta	.	.	.	.	.	.	.	.	.	.	.	.	.	16b-\Jk	.	16bb-\Jk	.
=63	=63	=63	=63	=63	=63	=63	=63	=63	=63	=63	=63	=63	=63	=63	=63	=63	=63	=63	=63	=63	=63	=63	=63	=63	=63	=63
8F\L	.	8F\	nos-	8c\	nos-	8f\	nos-	8a\	nos-	.	4.F\	.	8f/L	.	8f/L	.	8F\L	.	8F\L	.	8f/L	.	8a/L	.	8aa\L	.
!LO:TX:t=P:problem=mixed beam	!	!	!	!	!	!	!	!	!	!	!	!	!	!	!	!	!LO:TX:t=P:problem=mixed beam	!	!	!	!	!	!	!	!	!
16FF/L	.	8F\	-tra	8c\	-tra	8f\	-tra	8a\	-tra	.	.	.	16f/L	.	16f/L	.	16FF/L	.	16F\L	.	16f/L	.	16ff\L	.	16fff\L	.
16FF/JJ	.	.	.	.	.	.	.	.	.	.	.	.	16f/JJ	.	16f/JJ	.	16FF/JJ	.	16F\JJ	.	16f/JJ	.	16ff\JJ	.	16fff\JJ	.
!	!	!	!	!	!	!	!	!	!	!LO:DY:a	!	!	!	!	!	!	!	!	!	!	!	!	!	!	!	!
!	!	!	!	!	!	!LO:PB:g=original	!	!	!	!	!	!	!	!	!	!	!	!	!	!	!	!	!	!	!	!
8FF/	.	8r	.	8r	.	8r	.	8r	.	pp	.	.	8f/	.	8f/	.	8FF/	.	8F\	.	8f/	.	8ff\	.	8fff\	.
8r	.	16F\	il-	16A\	il-	16a\	il-	16cc\	il-	.	8r	.	8r	.	8r	.	8r	.	8r	.	8r	.	8r	.	8r	.
.	.	16F\	-los	16A\	-los	16a\	-los	16cc\	-los	.	.	.	.	.	.	.	.	.	.	.	.	.	.	.	.	.
=64	=64	=64	=64	=64	=64	=64	=64	=64	=64	=64	=64	=64	=64	=64	=64	=64	=64	=64	=64	=64	=64	=64	=64	=64	=64	=64
!	!	!	!	!	!	!	!	!	!	!	!	!	!	!	!LO:LB:g=original	!	!	!	!	!	!	!	!	!	!	!
8En\	.	8En\	tu-	8B-\	tu-	8g\	tu-	8dd-X\	tu-	.	2r	.	8r	pp	8r	pp	(>2B-\	mp	(>2d-X\	.	8r	pp	8r	pp	2r	.
8r	.	16E\	-os	16B-\	-os	16g\	-os	16dd-\	-os	.	.	.	8g/	.	8g/	.	.	.	.	.	8b-\	.	8dd-X\	.	.	.
.	.	16E\	mi-	16B-\	mi-	16g\	mi-	16dd-\	mi-	.	.	.	.	.	.	.	.	.	.	.	.	.	.	.	.	.
8E\	.	8E\	-se-	8B-\	-se-	8g\	-se-	8dd-\	-se-	.	.	.	8r	.	8r	.	.	.	.	.	8r	.	8r	.	.	.
8r	.	8E\	-ri-	8B-\	-ri-	8g\	-ri-	8dd-\	-ri-	.	.	.	8g/	.	8g/	.	.	.	.	.	8b-\	.	8dd-\	.	.	.
=65	=65	=65	=65	=65	=65	=65	=65	=65	=65	=65	=65	=65	=65	=65	=65	=65	=65	=65	=65	=65	=65	=65	=65	=65	=65	=65
!	!	!	!	!	!	!	!	!LO:PB:g=original	!	!	!	!	!	!	!	!	!	!	!	!	!	!	!LO:PB:g=original	!	!	!
8F\	.	8F\	-cor-	8F/	-cor-	8a\	-cor-	8cc\	-cor-	.	2r	.	8r	.	8r	.	2A\)	.	2c\)	.	8r	.	8r	.	2r	.
8r	.	8F\	-des	8F/	-des	8a\	-des	8cc\	-des	.	.	.	8f/	.	8f/	.	.	.	.	.	8a/	.	8cc\	.	.	.
8F\	.	16F\	o-	16A\	o-	16a\	o-	16cc\	o-	.	.	.	8r	.	8r	.	.	.	.	.	8r	.	8r	.	.	.
.	.	16F\	-cu-	16A\	-cu-	16a\	-cu-	16cc\	-cu-	.	.	.	.	.	.	.	.	.	.	.	.	.	.	.	.	.
8r	.	16F\	-los	16A\	-los	16a\	-los	16cc\	-los	.	.	.	8f/	.	8f/	.	.	.	.	.	8a/	.	8cc\	.	.	.
.	.	16F\	ad	16A\	ad	16a\	ad	16cc\	ad	.	.	.	.	.	.	.	.	.	.	.	.	.	.	.	.	.
=66	=66	=66	=66	=66	=66	=66	=66	=66	=66	=66	=66	=66	=66	=66	=66	=66	=66	=66	=66	=66	=66	=66	=66	=66	=66	=66
8En\	.	4.En\	nos	4.B-\	nos	4.g\	nos	4.dd-X\	nos	.	2r	.	8r	.	8r	.	(>2B-\	.	2d-X\	.	8r	.	8r	.	2r	.
8r	.	.	.	.	.	.	.	.	.	.	.	.	8g/	.	8g/	.	.	.	.	.	8b-\	.	8dd-X\	.	.	.
8E\	.	.	.	.	.	.	.	.	.	.	.	.	8r	.	8r	.	.	.	.	.	8r	.	8r	.	.	.
8r	.	8E\	con-	8B-\	con-	8g\	con-	8dd-\	con-	.	.	.	8g/	.	8g/	.	.	.	.	.	8b-\	.	8dd-\	.	.	.
=67	=67	=67	=67	=67	=67	=67	=67	=67	=67	=67	=67	=67	=67	=67	=67	=67	=67	=67	=67	=67	=67	=67	=67	=67	=67	=67
!	!	!	!	!LO:PB:g=original	!	!	!	!	!	!	!	!	!	!	!	!	!	!	!	!	!	!	!	!	!	!
8F\L	.	4F\	-ver-	4F/	-ver-	4a\	-ver-	4cc\	-ver-	.	2r	.	8f/L	.	8f/L	.	8A\L)	.	8c\L	.	8a/L	.	8cc\L	.	8r	.
!LO:TX:t=P:problem=mixed beam	!	!	!	!	!	!	!	!	!	!	!	!	!	!	!	!	!	!	!	!	!	!	!	!	!	!
16FF/L	.	.	.	.	.	.	.	.	.	.	.	.	16f/L	.	16f/L	.	16F\L	.	16F\L	.	16f/L	.	16ff\L	.	16fff\LL	.
16FF/JJ	.	.	.	.	.	.	.	.	.	.	.	.	16f/JJ	.	16f/JJ	.	16F\JJ	.	16F\JJ	.	16f/JJ	.	16ff\JJ	.	16fff\JJ	.
8FF/	.	8F\	-te	8F/	-te	8a\	-te	8cc\	-te	.	.	.	8f/	.	8f/	.	8F\	.	8r	.	8f/L	.	8ff\	.	8fff\	.
8r	.	8r	.	8r	.	8r	.	8r	.	.	.	.	8r	.	8r	.	8r	.	(>8d-X\	.	(>8b-\J	.	8r	.	8r	.
=68	=68	=68	=68	=68	=68	=68	=68	=68	=68	=68	=68	=68	=68	=68	=68	=68	=68	=68	=68	=68	=68	=68	=68	=68	=68	=68
!	!	!LO:PB:g=original	!	!	!	!	!	!	!	!	!	!	!LO:LB:g=original	!	!	!	!	!	!	!	!	!	!	!	!	!
8r	.	2r	.	2r	.	2r	.	2r	.	.	2r	.	8r	.	8r	.	8r	.	8c\)	.	8a/)	.	8r	.	8r	.
16FF/LL	.	.	.	.	.	.	.	.	.	.	.	.	16f/LL	.	16f/LL	.	16FF/LL	.	8r	.	8r	.	16ff\LL	.	16fff\LL	.
16FF/JJ	.	.	.	.	.	.	.	.	.	.	.	.	16f/JJ	.	16f/JJ	.	16FF/JJ	.	.	.	.	.	16ff\JJ	.	16fff\JJ	.
8FF/	.	.	.	.	.	.	.	.	.	.	.	.	8f/	.	8f/	.	8FF/	.	8r	.	8r	.	8ff\	.	8fff\	.
8r	.	.	.	.	.	.	.	.	.	.	.	.	8r	.	8r	.	8r	.	8d-X\	.	(>8b-\	.	8r	.	8r	.
=69	=69	=69	=69	=69	=69	=69	=69	=69	=69	=69	=69	=69	=69	=69	=69	=69	=69	=69	=69	=69	=69	=69	=69	=69	=69	=69
2r	.	2r	.	2r	.	2r	.	2r	.	.	2r	.	4r	.	4r	.	2r	.	(>8.c\L	.	8.aL\)	.	4r	.	2r	.
.	.	.	.	.	.	.	.	.	.	.	.	.	.	.	.	.	.	.	16B-\Jk	.	16g/Jk	.	.	.	.	.
.	.	.	.	.	.	.	.	.	.	.	.	.	8r	.	8r	.	.	.	16A\LL	.	16f/LL	.	8r	.	.	.
.	.	.	.	.	.	.	.	.	.	.	.	.	.	.	.	.	.	.	16G\	.	16e-/	.	.	.	.	.
.	.	.	.	.	.	.	.	.	.	.	.	.	16f/LL	.	16f/LL	.	.	.	16F\	.	16d/	.	16f/LL	.	.	.
.	.	.	.	.	.	.	.	.	.	.	.	.	16f/JJ	.	16f/JJ	.	.	.	16E-\JJ)	.	16c/JJ	.	16f/JJ	.	.	.
=70	=70	=70	=70	=70	=70	=70	=70	=70	=70	=70	=70	=70	=70	=70	=70	=70	=70	=70	=70	=70	=70	=70	=70	=70	=70	=70
!	!	!	!	!LO:LB:g=original	!	!LO:PB:g=original	!	!	!	!	!	!	!	!	!	!	!	!	!LO:PB:g=original	!	!LO:PB:g=original	!	!	!	!	!
8BB-/L	.	4r	.	4r	.	4r	.	4r	.	.	2r	.	8f/	.	8f/	.	8BB-/L	.	8Dn\L	.	8d/L	.	8f/^>L	.	4r	.
8AA/J	.	.	.	.	.	.	.	.	.	.	.	.	8r	.	8r	.	8AA/J	.	16F\L	.	8c/	.	16f/L	.	.	.
.	.	.	.	.	.	.	.	.	.	.	.	.	.	.	.	.	.	.	16F\JJ	.	.	.	16f/JJ	.	.	.
!	!	!	!	!	!	!	!	!	!	!	!	!	!	!	!	!	!	!	!	!	!	!	!LO:TX:t=P:problem=mixed beam	!	!	!
8BB-/	.	8r	.	8r	.	8r	.	8r	.	.	.	.	8r	.	8r	.	8BB-/	.	8F\L	.	8d/J	.	8f/^L	.	8r	.
16BB-/LL	.	8BB-/	Et	8B-\	Et	8f\	Et	8dd\	Et	.	.	.	16f/LL	.	16f/LL	.	16BB-/LL	.	16d\L	.	16b-\LL	.	16dd\L	.	16ddd\LL	.
16BB-/JJ	.	.	.	.	.	.	.	.	.	.	.	.	16f/JJ	.	16f/JJ	.	16BB-/JJ	.	16d\JJ	.	16b-\JJ	.	16dd\JJ	.	16ddd\JJ	.
=71	=71	=71	=71	=71	=71	=71	=71	=71	=71	=71	=71	=71	=71	=71	=71	=71	=71	=71	=71	=71	=71	=71	=71	=71	=71	=71
4.F\	.	4F\	Je-	4A\	Je-	4f\	Je-	8.cc\L	Je-	.	4.F\	.	4.f/	.	4.f/	.	4.F\	.	8.c\L	.	4.a/	.	8.cc\^L	.	8.ccc\L	.
.	.	.	.	.	.	.	.	16a\Jk	.	.	.	.	.	.	.	.	.	.	16A\Jk	.	.	.	16a/Jk	.	16aa\Jk	.
.	.	8F\	-sum	8A\	-sum	8f\	-sum	8f/	-sum	.	.	.	.	.	.	.	.	.	8F\	.	.	.	8f/	.	8ff\	.
8r	.	8r	.	8r	.	8r	.	8r	.	.	8r	.	8r	.	8r	.	8r	.	16F\LL	.	8r	.	16f/LL	.	8r	.
.	.	.	.	.	.	.	.	.	.	.	.	.	.	.	.	.	.	.	16F\JJ	.	.	.	16f/JJ	.	.	.
=72	=72	=72	=72	=72	=72	=72	=72	=72	=72	=72	=72	=72	=72	=72	=72	=72	=72	=72	=72	=72	=72	=72	=72	=72	=72	=72
!LO:PB:g=original	!	!	!	!	!	!	!	!	!	!	!	!	!	!	!	!	!	!	!	!	!LO:PB:g=original	!	!	!	!	!
8AA/L	.	4r	.	4r	.	4r	.	4r	.	.	2r	.	4r	.	4r	.	8AA/L	.	8F\L	.	8c/L	.	8f/^>L	.	4r	.
8BB-/J	.	.	.	.	.	.	.	.	.	.	.	.	.	.	.	.	8BB-/J	.	16F\L	.	8d/	.	16f/L	.	.	.
.	.	.	.	.	.	.	.	.	.	.	.	.	.	.	.	.	.	.	16F\JJ	.	.	.	16f/JJ	.	.	.
8AA/	.	8r	.	8r	.	8r	.	8r	.	.	.	.	8r	.	8r	.	8AA/	.	8F\L	.	8c/J	.	8f/^L	.	8r	.
!	!	!	!	!	!	!	!	!	!	!	!	!	!	!	!	!	!	!	!	!	!	!	!LO:TX:t=P:problem=mixed beam	!	!	!
16AA/LL	.	8AA/	Et	8c\	Et	8f\	Et	8ee-\	Et	.	.	.	16f/LL	.	16f/LL	.	16AA/LL	.	16e-\L	.	16cc\LL	.	16ee-\L	.	16eee-\LL	.
16AA/JJ	.	.	.	.	.	.	.	.	.	.	.	.	16f/JJ	.	16f/JJ	.	16AA/JJ	.	16e-\JJ	.	16cc\JJ	.	16ee-\JJ	.	16eee-\JJ	.
=73	=73	=73	=73	=73	=73	=73	=73	=73	=73	=73	=73	=73	=73	=73	=73	=73	=73	=73	=73	=73	=73	=73	=73	=73	=73	=73
!	!	!	!	!	!	!	!	!	!	!	!LO:LB:g=original	!	!	!	!	!	!	!	!	!	!	!	!	!	!	!
4.BB-/	.	4BB-/	Je-	4B-\	Je-	4f\	Je-	8.dd\L	Je-	.	4.BB-/	.	4.B-/	.	4.f/	.	4.BB-/	.	8.d\L	.	4.b-\	.	8.dd\L	.	8.ddd\L	.
.	.	.	.	.	.	.	.	16b-\Jk	.	.	.	.	.	.	.	.	.	.	16B-\Jk	.	.	.	16b-\Jk	.	16bb-\Jk	.
.	.	8BB-/	-sum	8B-\	-sum	8f\	-sum	8f/	-sum	.	.	.	.	.	.	.	.	.	8F\	.	.	.	8f/	.	8ff\L	.
8r	.	8r	.	8r	.	8r	.	8r	.	.	8r	.	8r	.	8r	.	8r	.	16B-\LL	.	16b-\LL	.	16b-\LL	.	16bb-\L	.
.	.	.	.	.	.	.	.	.	.	.	.	.	.	.	.	.	.	.	16B-\JJ	.	16b-\JJ	.	16b-\JJ	.	16bb-\JJ	.
=74	=74	=74	=74	=74	=74	=74	=74	=74	=74	=74	=74	=74	=74	=74	=74	=74	=74	=74	=74	=74	=74	=74	=74	=74	=74	=74
!	!	!	!	!	!	!	!	!LO:PB:g=original	!	!	!	!	!	!	!	!	!LO:PB:g=original	!	!	!	!	!	!LO:PB:g=original	!	!LO:PB:g=original	!
8D\L	.	4.B-\	Be-	4.B-\	Be-	4.b-\	Be-	4.b-\	Be-	.	(>8D\L	.	8B-/L	.	8f/L	.	(>8D\L	.	8D\L	.	8f/L	.	8b-\L	.	8bb-\L	.
8E-\J	.	.	.	.	.	.	.	.	.	.	8E-\)	.	8e-/	.	8g/	.	8E-\)	.	8E-\	.	8g/	.	16b-\L	.	16bb-\L	.
.	.	.	.	.	.	.	.	.	.	.	.	.	.	.	.	.	.	.	.	.	.	.	16b-\JJ	.	16bb-\JJ	.
8D\	.	.	.	.	.	.	.	.	.	.	8D\J	.	8B-/J	.	8f/J	.	8D\J	.	8D\J	.	8f/	.	8b-\L	.	8bb-\L	.
8D\	.	8D\	-ne-	8B-\	-ne-	8a-X\	-ne-	[8ff\	-ne-	.	8D\	.	8B-/	.	8f/	.	8D\	.	8B-\	.	8a-X/J	.	8ff\J	.	8fff\J	.
=75	=75	=75	=75	=75	=75	=75	=75	=75	=75	=75	=75	=75	=75	=75	=75	=75	=75	=75	=75	=75	=75	=75	=75	=75	=75	=75
4.E-\	.	4.E-\	-dic-	4B-\	-dic-	4g\	-dic-	8.ff\L]	-dic-	.	4.E-\	.	8e-/L	.	8g/L	.	4.E-\	.	8B-\L	.	8g/L	.	8.ff\L	.	8.fff\L	.
.	.	.	.	.	.	.	.	.	.	.	.	.	16e-/L	.	16g/L	.	.	.	16B-\L	.	16g/L	.	.	.	.	.
.	.	.	.	.	.	.	.	16ee-\Jk	.	.	.	.	16e-/JJ	.	16g/JJ	.	.	.	16B-\JJ	.	16g/JJ	.	16ee-\Jk	.	16eee-\Jk	.
.	.	.	.	4B-\	-tum	4g\	-tum	4ee-\	-tum	.	.	.	8e-/L	.	8g/L	.	.	.	8B-\L	.	8g/L	.	[4ee-\	.	[4eee-\	.
8G\	.	8G\	-tum	.	.	.	.	.	.	.	8G\	.	8e-/J	.	8g/J	.	8G\	.	8B-\J	.	8g/J	.	.	.	.	.
=76	=76	=76	=76	=76	=76	=76	=76	=76	=76	=76	=76	=76	=76	=76	=76	=76	=76	=76	=76	=76	=76	=76	=76	=76	=76	=76
4.B-\	.	4.B-\	fruc-	4B-\	fruc-	4f\	fruc-	8.ee-\L	fruc-	.	4.B-\	.	8B-/L	.	8f/L	.	4.B-\	.	8B-\L	.	8f/L	.	8.ee-\L]	.	8.eee-\L]	.
.	.	.	.	.	.	.	.	.	.	.	.	.	16B-/L	.	16f/L	.	.	.	16B-\L	.	16f/L	.	.	.	.	.
.	.	.	.	.	.	.	.	16dd\Jk	.	.	.	.	16B-/JJ	.	16f/JJ	.	.	.	16B-\JJ	.	16f/JJ	.	16dd\Jk	.	16ddd\Jk	.
.	.	.	.	4B-\	-tum	4f\	-tum	4dd\	-tum	.	.	.	8B-/L	.	8f/L	.	.	.	8B-\L	.	8f/L	.	4dd\	.	4ddd\	.
8B-\	.	8B-\	-tum	.	.	.	.	.	.	.	8B-\	.	8B-/J	.	8f/J	.	8B-\	.	8B-\J	.	8f/J	.	.	.	.	.
=77	=77	=77	=77	=77	=77	=77	=77	=77	=77	=77	=77	=77	=77	=77	=77	=77	=77	=77	=77	=77	=77	=77	=77	=77	=77	=77
2F\	.	4F\	ven-	8.B-\L	ven-	4.f\	ven-	4cc\	ven-	.	2F\	.	8f/L	.	8f/L	.	2F\	.	8.B-\L	.	4.f/	.	8cc\L	.	8ccc\L	.
.	.	.	.	.	.	.	.	.	.	.	.	.	16f/L	.	16f/L	.	.	.	.	.	.	.	16cc\L	.	16ccc\L	.
.	.	.	.	16A\Jk	.	.	.	.	.	.	.	.	16f/JJ	.	16f/JJ	.	.	.	16A\Jk	.	.	.	16cc\JJ	.	16ccc\JJ	.
.	.	4F\	-tris	4A\	-tris	.	.	4cc\	-tris	.	.	.	8f/	.	8f/	.	.	.	[4A\	.	.	.	8cc\L	.	8ccc\L	.
.	.	.	.	.	.	8e-\	-tris	.	.	.	.	.	8r	.	8r	.	.	.	.	.	8e-/	.	8cc\J	.	8ccc\J	.
=78	=78	=78	=78	=78	=78	=78	=78	=78	=78	=78	=78	=78	=78	=78	=78	=78	=78	=78	=78	=78	=78	=78	=78	=78	=78	=78
!	!	!	!	!	!	!	!	!	!	!	!	!	!	!	!	!	!	!	!LO:LB:g=original	!	!	!	!	!	!	!
!	!	!	!	!	!	!	!	!	!	!	!	!	!	!	!	!	!	!	!LO:SIC:o:v=brak początku łuku	!	!	!	!	!	!	!
2G\	.	4G\	tu-	8.A\L	tu-	4.d\	tu-	8.cc\L	tu-	.	2G\	.	2r	.	2r	.	2G\	.	8.A\L]	.	4.d/	.	8.cc\L	.	8.ccc\L	.
.	.	.	.	16G/Jk	.	.	.	16b-\Jk	.	.	.	.	.	.	.	.	.	.	16G\Jk	.	.	.	16b-\Jk	.	16bb-\Jk	.
.	.	4G\	-i	4d\	-i	.	.	4b-\	-i	.	.	.	.	.	.	.	.	.	[4d\	.	.	.	4b-\	.	4bb-\	.
.	.	.	.	.	.	8g\	-i	.	.	.	.	.	.	.	.	.	.	.	.	.	8g/	.	.	.	.	.
=79	=79	=79	=79	=79	=79	=79	=79	=79	=79	=79	=79	=79	=79	=79	=79	=79	=79	=79	=79	=79	=79	=79	=79	=79	=79	=79
!	!	!	!	!LO:PB:g=original	!	!LO:PB:g=original	!	!	!	!	!	!	!	!	!	!	!	!	!	!	!	!	!	!	!	!
2D\	.	2D\	no-	(>4.d\	no-	8.g\L	no-	2a\	no-	.	2D\	.	4r	.	4r	.	2D\	.	4.d\]	.	8.g/L	.	2a/	.	2aa\	.
.	.	.	.	.	.	16f\Jk	.	.	.	.	.	.	.	.	.	.	.	.	.	.	16f/Jk	.	.	.	.	.
.	.	.	.	.	.	4f\	.	.	.	.	.	.	4f/	.	4f/	.	.	.	.	.	4f/	.	.	.	.	.
.	.	.	.	8c\)	.	.	.	.	.	.	.	.	.	.	.	.	.	.	8c\	.	.	.	.	.	.	.
=80	=80	=80	=80	=80	=80	=80	=80	=80	=80	=80	=80	=80	=80	=80	=80	=80	=80	=80	=80	=80	=80	=80	=80	=80	=80	=80
!	!	!LO:PB:g=original	!	!	!	!	!	!	!	!	!	!	!	!	!LO:PB:g=original	!	!	!	!	!	!	!	!	!	!	!
2E-\	.	4.E-\	-bis	4B-\	-bis	8.f\L	-bis	4g\	-bis	.	2E-\	.	4e-/	.	4g/	.	4.E-\	.	4B-\	.	8.f/L	.	4g/	.	4gg\	.
.	.	.	.	.	.	16e-\Jk	.	.	.	.	.	.	.	.	.	.	.	.	.	.	16e-/Jk	.	.	.	.	.
.	.	.	.	4B-\	post	4e-\	post	4g\	post	.	.	.	4e-/	.	4g/	.	.	.	4B-\	.	4e-/	.	4g/	.	4gg\	.
.	.	8E-\	post	.	.	.	.	.	.	.	.	.	.	.	.	.	8E-\	.	.	.	.	.	.	.	.	.
=81	=81	=81	=81	=81	=81	=81	=81	=81	=81	=81	=81	=81	=81	=81	=81	=81	=81	=81	=81	=81	=81	=81	=81	=81	=81	=81
!	!	!	!	!	!	!	!	!	!	!	!	!	!	!	!	!	!	!	!	!	!LO:PB:g=original	!	!LO:LB:g=original	!	!	!
8C/L	.	4.C/	hoc	4.c\	hoc	4.g\	hoc	4.ee-\	hoc	.	2C/	.	8e-/L	.	8g/L	.	8C/L	.	8c\L	.	8g/L	.	8ee-\L	.	8eee-\L	.
16C/L	.	.	.	.	.	.	.	.	.	.	.	.	16e-/L	.	16g/L	.	16C/L	.	16c\L	.	16g/L	.	16ee-\L	.	16eee-\L	.
16C/JJ	.	.	.	.	.	.	.	.	.	.	.	.	16e-/JJ	.	16g/JJ	.	16C/JJ	.	16c\JJ	.	16g/JJ	.	16ee-\JJ	.	16eee-\JJ	.
8C/L	.	.	.	.	.	.	.	.	.	.	.	.	8e-/L	.	8g/L	.	8C/L	.	8c\L	.	8g/L	.	8ee-\L	.	8eee-\L	.
8C/J	.	8C/	e-	8c\	e-	8g\	e-	8ee-\	e-	.	.	.	8e-/J	.	8g/J	.	8C/J	.	8c\J	.	8g/J	.	8ee-\J	.	8eee-\J	.
=82	=82	=82	=82	=82	=82	=82	=82	=82	=82	=82	=82	=82	=82	=82	=82	=82	=82	=82	=82	=82	=82	=82	=82	=82	=82	=82
8.C/L	.	8.C/	-xi-	8.c\	-xi-	8.g\	-xi-	8.ee-\	-xi-	.	4C/	.	8.e-/L	.	8.g/L	.	8.C/L	.	8.c\L	.	8.g/L	.	8.ee-\L	.	8.eee-\L	.
16C/K	.	16C/	-li-	16c\	-li-	16g\	-li-	16ee-\	-li-	.	.	.	16e-/K	.	16g/K	.	16C/K	.	16c\K	.	16g/K	.	16ee-\K	.	16eee-\K	.
8.E-\	.	8.E-\	-um	8.c\	-um	8.g\	-um	8.ee-\	-um	.	4E-/	.	8.e-/	.	8.g/	.	8.E-\	.	8.c\	.	8.g/	.	8.ee-\	.	8.eee-\	.
16E-\Jk	.	16E-\	o-	16c\	o-	16g\	o-	16ee-\	o-	.	.	.	16e-/Jk	.	16g/Jk	.	16E-\Jk	.	16c\Jk	.	16g/Jk	.	16ee-\Jk	.	16eee-\Jk	.
=83	=83	=83	=83	=83	=83	=83	=83	=83	=83	=83	=83	=83	=83	=83	=83	=83	=83	=83	=83	=83	=83	=83	=83	=83	=83	=83
!	!	!	!	!	!	!	!	!	!	!	!	!	!LO:PB:g=original	!	!	!	!	!	!	!	!	!	!	!	!	!
4G\	.	4G\	-sten-	(>8.c\L	-sten-	4g\	-sten-	2dd\	-sten-	.	4G\	.	4e-/	.	4g/	.	4G\	.	8.c\L	.	4g/	.	2dd\	.	2ddd\	.
.	.	.	.	16B-\Jk	.	.	.	.	.	.	.	.	.	.	.	.	.	.	16B-\Jk	.	.	.	.	.	.	.
4F\	.	4F\	.	4B-\)	.	4a-X\	.	.	.	.	4F\	.	4f/	.	4a--/	.	4F\	.	4B-\	.	4a-X/	.	.	.	.	.
=84	=84	=84	=84	=84	=84	=84	=84	=84	=84	=84	=84	=84	=84	=84	=84	=84	=84	=84	=84	=84	=84	=84	=84	=84	=84	=84
!LO:PB:g=original	!	!	!	!	!	!	!	!LO:LB:g=original	!	!	!	!	!	!	!	!	!	!	!	!	!	!	!	!	!	!
4E-\	.	4E-\	-de	4B-\	-de	4g\	-de	4ee-\	-de	.	4E-\	.	4e-/	.	4g/	.	4E-\	.	4B-\	.	4g/	.	4ee-\	.	4eee-\	.
4E-\	.	4E-\	e-	4B-\	e-	4b-\	e-	[4gg\	e-	.	4E-\	.	4e-/	.	4g/	.	4E-\	.	4B-\	.	4b-\	.	4gg\	.	4bb-\	.
=85	=85	=85	=85	=85	=85	=85	=85	=85	=85	=85	=85	=85	=85	=85	=85	=85	=85	=85	=85	=85	=85	=85	=85	=85	=85	=85
8.E-\L	.	8.E-\	-xi-	8.B-\	-xi-	8.b-\	-xi-	8.gg\]	-xi-	.	4E-\	.	8.e-/L	.	8.g/L	.	8.E-\L	.	8.B-\L	.	8.b-\L	.	8.gg\L	.	8.bb-\L	.
16E-\K	.	16E-\	-li-	16Bn\	-li-	16bn\	-li-	16gg\	-li-	.	.	.	16e-/K	.	16g/K	.	16E-\K	.	16Bn\K	.	16bX\K	.	16gg\K	.	16bbn\K	.
8.E-\	.	8.E-\	-um	8.c\	-um	8.cc\	-um	8.gg\	-um	.	4r	.	8.e-/J	.	8.g/	.	8.E-\	.	8.c\	.	8.cc\	.	8.gg\	.	8.ccc\	.
16En\Jk	.	16En\	e-	16c#X\	e-	16b-X\	e-	16gg\	e-	.	.	.	16g/	.	16g/Jk	.	16En\Jk	.	16B-X\Jk	.	16cc#X\Jk	.	16gg\Jk	.	16ccc#X\Jk	.
=86	=86	=86	=86	=86	=86	=86	=86	=86	=86	=86	=86	=86	=86	=86	=86	=86	=86	=86	=86	=86	=86	=86	=86	=86	=86	=86
!	!LO:DY:b	!	!	!	!	!	!	!	!	!	!	!	!	!	!	!	!LO:PB:g=original	!	!	!	!	!	!	!	!LO:PB:g=original	!
8F\	fp	8F\	-xi-	(>8d\L	-xi-	8b-\	-xi-	(>8ff\L	-xi-	.	2r	.	8f/	.	8f/	.	8F\L	.	8r	.	8r	.	8r	.	8ddd\	fp
8r	.	8r	.	16B-X\Jk)	.	8r	.	16dd\Jk)	.	.	.	.	8r	.	8r	.	8d\J	.	8f\	.	8dd\	.	8ff\	.	8r	.
.	.	.	.	16r	.	.	.	16r	.	.	.	.	.	.	.	.	.	.	.	.	.	.	.	.	.	.
8F\	.	8F\	-li-	(>8d\L	-li-	8b-\	-li-	(>8ff\L	-li-	.	.	.	8f/	.	8f/	.	8r	.	8r	.	8r	.	8r	.	4r	.
8r	.	8r	.	16B-\Jk)	.	8r	.	16dd\Jk)	.	.	.	.	8r	.	8r	.	8d\	.	8f\	.	8dd\	.	8ff\	.	.	.
.	.	.	.	16r	.	.	.	16r	.	.	.	.	.	.	.	.	.	.	.	.	.	.	.	.	.	.
=87	=87	=87	=87	=87	=87	=87	=87	=87	=87	=87	=87	=87	=87	=87	=87	=87	=87	=87	=87	=87	=87	=87	=87	=87	=87	=87
!	!	!LO:LB:g=original	!	!LO:PB:g=original	!	!LO:LB:g=original	!	!	!	!	!	!	!	!	!	!	!	!	!	!	!	!	!	!	!	!
4F\	.	4.F\	-um	4.d\	-um	4.b-\	-um	4.ff\	-um	.	2r	.	4f/	.	4f/	.	8r	.	8r	.	8r	.	8r	.	2r	.
.	.	.	.	.	.	.	.	.	.	.	.	.	.	.	.	.	(>8B-\L	.	8d\L	.	(>8b-\L	.	(>8dd\L	.	.	.
4r	.	.	.	.	.	.	.	.	.	.	.	.	4r	.	4r	.	8d\	.	8f\	.	8dd\	.	8ff\	.	.	.
.	.	8F\	o-	8B-\	o-	8f\	o-	8dd\	o-	.	.	.	.	.	.	.	8B-\J)	.	8d\J	.	8b-\J)	.	8dd\J)	.	.	.
=88	=88	=88	=88	=88	=88	=88	=88	=88	=88	=88	=88	=88	=88	=88	=88	=88	=88	=88	=88	=88	=88	=88	=88	=88	=88	=88
2F\	.	2F\	-sten-	4B-\	-sten-	2f\	-sten-	2cc\	-sten-	.	2F\	.	2f/	.	2f/	.	4B-\	.	2c\	.	4b-\	.	2cc\	.	8r	.
.	.	.	.	.	.	.	.	.	.	.	.	.	.	.	.	.	.	.	.	.	.	.	.	.	8ccc\L	.
.	.	.	.	4A\	.	.	.	.	.	.	.	.	.	.	.	.	4A\	.	.	.	4a/	.	.	.	8.fff\	.
.	.	.	.	.	.	.	.	.	.	.	.	.	.	.	.	.	.	.	.	.	.	.	.	.	16eee-\Jk	.
=89	=89	=89	=89	=89	=89	=89	=89	=89	=89	=89	=89	=89	=89	=89	=89	=89	=89	=89	=89	=89	=89	=89	=89	=89	=89	=89
!	!	!	!	!	!	!	!	!	!	!	!LO:PB:g=original	!	!	!	!	!	!	!	!LO:PB:g=original	!	!	!	!	!	!	!
8BB-/L	.	4BB-/	-de	4B-\	-de	4f\	-de.	4dd\	-de.	.	4BB-/	.	8B-/	.	8f/	.	8B-\L	.	8B-\L	.	8b-\L	.	8b-\L	.	8ddd\L	.
!	!	!	!	!	!	!	!	!	!	!	!	!	!	!	!	!	!LO:TX:t=P:problem=mixe beam	!	!	!	!	!	!	!	!	!
16BB-/L	.	.	.	.	.	.	.	.	.	.	.	.	16BB-/LL	.	16B-/LL	.	16BB-/L	.	16B-\L	.	16b-\L	.	16bb-\L	.	16bb-\L	.
16BB-/JJ	.	.	.	.	.	.	.	.	.	.	.	.	16BB-/JJ	.	16B-/JJ	.	16BB-/JJ	.	16B-\JJ	.	16b-\JJ	.	16bb-\JJ	.	16bb-\JJ	.
8BB-/	.	4r	.	8r	.	8r	.	8r	.	.	4r	.	8BB-/	.	8B-/	.	8BB-/	.	8B-\	.	8b-\	.	8bb-\	.	8bb-\	.
8r	.	.	.	8f\	o	8b-\	o	8dd\	o	.	.	.	8r	.	8r	.	8r	.	8r	.	8r	.	8r	.	8r	.
=90	=90	=90	=90	=90	=90	=90	=90	=90	=90	=90	=90	=90	=90	=90	=90	=90	=90	=90	=90	=90	=90	=90	=90	=90	=90	=90
!	!	!	!	!	!	!	!	!	!	!	!	!	!	!	!	!	!	!	!	!	!	!	!LO:PB:g=original	!	!	!
2r	.	2r	.	4g\	cle-	4b-\	cle-	4ee-\	cle-	.	2r	.	2r	.	2r	.	2r	.	2r	.	2r	.	2r	.	2r	.
.	.	.	.	8f\	-mens	8b-\	-mens	8dd\	-mens	.	.	.	.	.	.	.	.	.	.	.	.	.	.	.	.	.
.	.	.	.	8f\	O	8b-\	o	8dd\	o	.	.	.	.	.	.	.	.	.	.	.	.	.	.	.	.	.
=91	=91	=91	=91	=91	=91	=91	=91	=91	=91	=91	=91	=91	=91	=91	=91	=91	=91	=91	=91	=91	=91	=91	=91	=91	=91	=91
!LO:TX:a:t=problem&colon; cue notes partii wokalnej Basso w warstwie 1, pauzy w warstwie 2	!	!	!	!	!	!	!	!	!	!	!	!	!	!	!	!	!	!	!	!	!	!	!	!	!	!
*^	*	*	*	*	*	*	*	*	*	*	*	*	*	*	*	*	*	*	*	*	*	*	*	*	*	*
*cue	*	*	*	*	*	*	*	*	*	*	*	*	*	*	*	*	*	*	*	*	*	*	*	*	*	*	*
2B-/	2r	.	2B-\	O!	4e-\	pi-	4a\	pi-	4cc\	pi-	.	2r	.	2r	.	2r	.	2r	.	2r	.	2r	.	2r	.	2r	.
.	.	.	.	.	8d\	-a	8b-\	-a	8b-\	-a	.	.	.	.	.	.	.	.	.	.	.	.	.	.	.	.	.
.	.	.	.	.	8d\	O!	8f\	O!	8b-\	O!	.	.	.	.	.	.	.	.	.	.	.	.	.	.	.	.	.
=92	=92	=92	=92	=92	=92	=92	=92	=92	=92	=92	=92	=92	=92	=92	=92	=92	=92	=92	=92	=92	=92	=92	=92	=92	=92	=92	=92
!	!	!	!	!	!	!	!	!	!LO:PB:g=original	!	!	!	!	!	!	!	!	!	!	!	!	!	!	!	!	!	!
!	!	!	!	!	!	!	!	!	!LO:SIC:v=zapis niejednoznaczny - ozdobnik?	!	!	!	!	!	!	!	!	!	!	!	!	!	!	!	!	!	!
4F/	2r	.	4F\	dul-	4c\	dul-	8.f\L	dul-	4.a\t	dul-	.	2r	.	2r	.	2r	.	2r	.	2r	.	2r	.	2r	.	2r	.
.	.	.	.	.	.	.	16e-\Jk	.	.	.	.	.	.	.	.	.	.	.	.	.	.	.	.	.	.	.	.
4F/	.	.	4F\	-cis	4c\	-cis	4e-\	-cis	.	.	.	.	.	.	.	.	.	.	.	.	.	.	.	.	.	.	.
.	.	.	.	.	.	.	.	.	(>16g\LL	-cis	.	.	.	.	.	.	.	.	.	.	.	.	.	.	.	.	.
.	.	.	.	.	.	.	.	.	16a\JJ)	.	.	.	.	.	.	.	.	.	.	.	.	.	.	.	.	.	.
=93	=93	=93	=93	=93	=93	=93	=93	=93	=93	=93	=93	=93	=93	=93	=93	=93	=93	=93	=93	=93	=93	=93	=93	=93	=93	=93	=93
4G/	2r	.	4G\	Vir-	4B-\	Vir-	4d\	Vir-	(>8.b-\L	Vir-	.	2r	.	2r	.	2r	.	2r	.	2r	.	2r	.	2r	.	2r	.
.	.	.	.	.	.	.	.	.	16a\Jk)	.	.	.	.	.	.	.	.	.	.	.	.	.	.	.	.	.	.
8G/	.	.	8G\	-go	8B-\	-go	8d\	-go	(>16g\LL	-go	.	.	.	.	.	.	.	.	.	.	.	.	.	.	.	.	.
.	.	.	.	.	.	.	.	.	16a\JJ	.	.	.	.	.	.	.	.	.	.	.	.	.	.	.	.	.	.
8G-X/	.	.	8G-X\	Ma-	8B-\	Ma-	8en\	Ma-	16b-\LL	Ma-	.	.	.	.	.	.	.	.	.	.	.	.	.	.	.	.	.
.	.	.	.	.	.	.	.	.	16cc\JJ)	.	.	.	.	.	.	.	.	.	.	.	.	.	.	.	.	.	.
=94	=94	=94	=94	=94	=94	=94	=94	=94	=94	=94	=94	=94	=94	=94	=94	=94	=94	=94	=94	=94	=94	=94	=94	=94	=94	=94	=94
2F/	2r	.	2F\	-ri-	4B-\	-ri-	8f\L	-ri-	(>4dd\	-ri-	.	2r	.	2r	.	2r	.	2r	.	2r	.	2r	.	2r	.	2r	.
.	.	.	.	.	.	.	8d\J	.	.	.	.	.	.	.	.	.	.	.	.	.	.	.	.	.	.	.	.
!	!	!	!	!	!	!	!LO:SIC:o:v=skreslona sylaba"a"	!	!	!	!	!	!	!	!	!	!	!	!	!	!	!	!	!	!	!	!
.	.	.	.	.	4A\	.	4e-X\	.	16dd\LL	.	.	.	.	.	.	.	.	.	.	.	.	.	.	.	.	.	.
.	.	.	.	.	.	.	.	.	16cc\	.	.	.	.	.	.	.	.	.	.	.	.	.	.	.	.	.	.
.	.	.	.	.	.	.	.	.	16b-\	.	.	.	.	.	.	.	.	.	.	.	.	.	.	.	.	.	.
.	.	.	.	.	.	.	.	.	16cc\JJ)	.	.	.	.	.	.	.	.	.	.	.	.	.	.	.	.	.	.
=95	=95	=95	=95	=95	=95	=95	=95	=95	=95	=95	=95	=95	=95	=95	=95	=95	=95	=95	=95	=95	=95	=95	=95	=95	=95	=95	=95
!	!	!	!	!	!	!	!LO:PB:g=original	!	!	!	!	!	!	!	!	!	!	!	!	!	!	!LO:PB:g=original	!	!	!	!LO:LB:g=original	!
4BB-/	8r	.	4BB-/	-a	4B-\	-a	4d\	-a	4b-\	-a	.	2r	.	8r	.	8r	.	8r	.	8r	.	8r	.	8r	.	8r	.
.	16BB-LL/	.	.	.	.	.	.	.	.	.	.	.	.	16BB-/LL	.	16B-/LL	.	16BB-/LL	.	16B-\LL	.	16b-\LL	.	16bb-\LL	.	16bb-\LL	.
.	16BB-\JJ	.	.	.	.	.	.	.	.	.	.	.	.	16BB-/JJ	.	16B-/JJ	.	16BB-/JJ	.	16B-\JJ	.	16b-\JJ	.	16bb-\JJ	.	16bb-\JJ	.
4ryy	8BB-\	.	4r	.	8r	.	8r	.	8r	.	.	.	.	8BB-/	.	8B-/	.	8BB-/	.	8B-\	.	8b-\	.	8bb-\	.	8bb-\	.
.	8r	.	.	.	8f\	O!	8b-\	O!	8dd\	O!	.	.	.	8r	.	8r	.	8r	.	8r	.	8r	.	8r	.	8r	.
*v	*v	*	*	*	*	*	*	*	*	*	*	*	*	*	*	*	*	*	*	*	*	*	*	*	*	*	*
=96	=96	=96	=96	=96	=96	=96	=96	=96	=96	=96	=96	=96	=96	=96	=96	=96	=96	=96	=96	=96	=96	=96	=96	=96	=96	=96
.	.	.	.	.	.	.	.	8qqff/	.	.	.	.	.	.	.	.	.	.	.	.	.	.	.	.	.	.
2r	.	2r	.	4g\	cle-	4b-\	cle-	4ee-\	cle-	.	2r	.	2r	.	2r	.	2r	.	2r	.	2r	.	2r	.	2r	.
.	.	.	.	8f\	-mens	8b-\	-mens	8dd\	-mens	.	.	.	.	.	.	.	.	.	.	.	.	.	.	.	.	.
.	.	.	.	8f\	o	8b-\	o	8dd\	o	.	.	.	.	.	.	.	.	.	.	.	.	.	.	.	.	.
=97	=97	=97	=97	=97	=97	=97	=97	=97	=97	=97	=97	=97	=97	=97	=97	=97	=97	=97	=97	=97	=97	=97	=97	=97	=97	=97
!LO:LB:g=original	!	!	!	!	!LO:PB:g=original	!	!	!	!	!	!	!	!	!	!	!	!	!	!	!	!	!	!	!	!	!
!LO:TX:a:t=problem&colon; cue notes partii wokalnej Basso w warstwie 1, pauzy w warstwie 2	!	!	!	!	!	!	!	!	!	!	!	!	!	!	!	!	!	!	!	!	!	!	!	!	!	!
*^	*	*	*	*	*	*	*	*	*	*	*	*	*	*	*	*	*	*	*	*	*	*	*	*	*	*
2B-/	2r	.	2B-\	O!	4e-\	pi-	4a\	pi-	4cc\	pi-	.	2r	.	2r	.	2r	.	2r	.	2r	.	2r	.	2r	.	2r	.
.	.	.	.	.	8d\	-a	8b-\	-a	8b-\	-a	.	.	.	.	.	.	.	.	.	.	.	.	.	.	.	.	.
.	.	.	.	.	8d\	O	8f\	O!	8b-\	O!	.	.	.	.	.	.	.	.	.	.	.	.	.	.	.	.	.
=98	=98	=98	=98	=98	=98	=98	=98	=98	=98	=98	=98	=98	=98	=98	=98	=98	=98	=98	=98	=98	=98	=98	=98	=98	=98	=98	=98
!	!	!	!	!	!	!	!	!	!LO:SIC:v= zapis niejednoznaczny - ozdobnik? tryl?	!	!	!	!	!	!	!	!	!	!	!	!	!	!	!	!	!	!
4F/	2r	.	4F\	dul-	4c\	dul-	8.f\L	dul-	4.a\t	dul-	.	2r	.	2r	.	2r	.	2r	.	2r	.	2r	.	2r	.	2r	.
.	.	.	.	.	.	.	16e-\Jk	.	.	.	.	.	.	.	.	.	.	.	.	.	.	.	.	.	.	.	.
4F/	.	.	4F\	-cis	4c\	-cis	4e-\	-cis	.	.	.	.	.	.	.	.	.	.	.	.	.	.	.	.	.	.	.
.	.	.	.	.	.	.	.	.	16g\LL	-cis	.	.	.	.	.	.	.	.	.	.	.	.	.	.	.	.	.
.	.	.	.	.	.	.	.	.	16a\JJ	.	.	.	.	.	.	.	.	.	.	.	.	.	.	.	.	.	.
=99	=99	=99	=99	=99	=99	=99	=99	=99	=99	=99	=99	=99	=99	=99	=99	=99	=99	=99	=99	=99	=99	=99	=99	=99	=99	=99	=99
4G/	2r	.	4G\	Vir-	4B-\	Vir-	4d\	Vir-	8.b-\L	Vir-	.	2r	.	2r	.	2r	.	2r	.	2r	.	2r	.	2r	.	2r	.
.	.	.	.	.	.	.	.	.	16a\Jk	.	.	.	.	.	.	.	.	.	.	.	.	.	.	.	.	.	.
!	!	!	!	!	!	!	!	!	!LO:PB:g=original	!	!	!	!	!	!	!	!	!	!	!	!	!	!	!	!	!	!
8G/	.	.	8G\	-go	8B-\	-go	8d\	-go	16g\LL	-go	.	.	.	.	.	.	.	.	.	.	.	.	.	.	.	.	.
.	.	.	.	.	.	.	.	.	16a\JJ	.	.	.	.	.	.	.	.	.	.	.	.	.	.	.	.	.	.
8G-X/	.	.	8G-X\	Ma-	8B-\	Ma-	8en\	Ma-	16b-\LL	Ma-	.	.	.	.	.	.	.	.	.	.	.	.	.	.	.	.	.
.	.	.	.	.	.	.	.	.	16cc\JJ	.	.	.	.	.	.	.	.	.	.	.	.	.	.	.	.	.	.
=100	=100	=100	=100	=100	=100	=100	=100	=100	=100	=100	=100	=100	=100	=100	=100	=100	=100	=100	=100	=100	=100	=100	=100	=100	=100	=100	=100
!	!	!	!LO:PB:g=original	!	!	!	!	!	!	!	!	!	!	!	!	!	!	!	!	!	!	!	!	!	!	!	!
2F/	2r	.	2F\	-ri-	4B-\	-ri-	8f\L	-ri-	(>4dd\	-ri-	.	2r	.	2r	.	2r	.	2r	.	2r	.	2r	.	2r	.	2r	.
.	.	.	.	.	.	.	8d\J	.	.	.	.	.	.	.	.	.	.	.	.	.	.	.	.	.	.	.	.
.	.	.	.	.	4A\	-a	4e-X\	.	16dd\LL	.	.	.	.	.	.	.	.	.	.	.	.	.	.	.	.	.	.
.	.	.	.	.	.	.	.	.	16cc\	.	.	.	.	.	.	.	.	.	.	.	.	.	.	.	.	.	.
.	.	.	.	.	.	.	.	.	16b-\	.	.	.	.	.	.	.	.	.	.	.	.	.	.	.	.	.	.
.	.	.	.	.	.	.	.	.	16cc\JJ)	.	.	.	.	.	.	.	.	.	.	.	.	.	.	.	.	.	.
=101	=101	=101	=101	=101	=101	=101	=101	=101	=101	=101	=101	=101	=101	=101	=101	=101	=101	=101	=101	=101	=101	=101	=101	=101	=101	=101	=101
4BB-/	2rG	.	4BB-/	-a	4.f\	Sal-	4d\	-a	4b-\	-a	.	2r	.	2r	.	2r	.	2r	.	4.f\	.	2r	.	2r	.	2r	.
*Xcue	*	*	*	*	*	*	*	*	*	*	*	*	*	*	*	*	*	*	*	*	*	*	*	*	*	*	*
4ryy	.	.	4r	.	.	.	4r	.	4r	.	.	.	.	.	.	.	.	.	.	.	.	.	.	.	.	.	.
.	.	.	.	.	[8d\	.	.	.	.	.	.	.	.	.	.	.	.	.	.	8d\	.	.	.	.	.	.	.
*v	*v	*	*	*	*	*	*	*	*	*	*	*	*	*	*	*	*	*	*	*	*	*	*	*	*	*	*
=102	=102	=102	=102	=102	=102	=102	=102	=102	=102	=102	=102	=102	=102	=102	=102	=102	=102	=102	=102	=102	=102	=102	=102	=102	=102	=102
2r	.	2r	.	8d\L]	.	4r	.	2r	.	.	2r	.	2r	.	2r	.	2r	.	8d\L	.	4r	.	2r	.	2r	.
.	.	.	.	8e-\	.	.	.	.	.	.	.	.	.	.	.	.	.	.	8e-\	.	.	.	.	.	.	.
.	.	.	.	8d\	.	[4b-\	Sal-	.	.	.	.	.	.	.	.	.	.	.	8d\	.	[4b-\	.	.	.	.	.
.	.	.	.	8B-\J	.	.	.	.	.	.	.	.	.	.	.	.	.	.	8B-\J	.	.	.	.	.	.	.
=103	=103	=103	=103	=103	=103	=103	=103	=103	=103	=103	=103	=103	=103	=103	=103	=103	=103	=103	=103	=103	=103	=103	=103	=103	=103	=103
!	!	!	!	!	!	!LO:PB:g=original	!	!	!	!	!	!	!	!	!	!	!	!	!	!	!	!	!	!	!	!
2r	.	2r	.	4c\	.	8b-\L]	.	2r	.	.	2r	.	2r	.	2r	.	2r	.	4c\	.	8b-\L]	.	2r	.	2r	.
.	.	.	.	.	.	8a\	.	.	.	.	.	.	.	.	.	.	.	.	.	.	8a/	.	.	.	.	.
.	.	.	.	8d\L	.	(>8b-\	.	.	.	.	.	.	.	.	.	.	.	.	8d\L	.	(>8b-\	.	.	.	.	.
.	.	.	.	8B-\J	.	8dd\J)	.	.	.	.	.	.	.	.	.	.	.	.	8B-\J	.	8dd\J	.	.	.	.	.
=104	=104	=104	=104	=104	=104	=104	=104	=104	=104	=104	=104	=104	=104	=104	=104	=104	=104	=104	=104	=104	=104	=104	=104	=104	=104	=104
2r	.	2r	.	(>8A\L	.	(>8cc\L	.	4.ff\	Sal-	.	2r	.	2r	.	2r	.	2r	.	8A\L	.	8cc\L)	.	4.ff\	.	4.fff\	.
.	.	.	.	8B-\	.	8dd\	.	.	.	.	.	.	.	.	.	.	.	.	8B-\	.	8dd\	.	.	.	.	.
.	.	.	.	8c\	.	8a\	.	.	.	.	.	.	.	.	.	.	.	.	8c\	.	8a/	.	.	.	.	.
.	.	.	.	8d\J)	.	8b-\J)	.	[8dd\	.	.	.	.	.	.	.	.	.	.	8d\J	.	8b-\J	.	[8dd\	.	[8ddd\	.
=105	=105	=105	=105	=105	=105	=105	=105	=105	=105	=105	=105	=105	=105	=105	=105	=105	=105	=105	=105	=105	=105	=105	=105	=105	=105	=105
!	!	!	!	!	!	!	!	!	!	!	!	!	!	!	!	!	!LO:PB:g=original	!	!	!	!	!	!	!	!	!
4r	.	4r	.	4B-\	.	8f\L	.	8dd\L]	.	.	2r	.	8r	.	8r	.	4r	.	4B-\	.	8f/L	.	8dd\L]	.	8ddd\L]	.
.	.	.	.	.	.	8g\J	.	(>8ee-\	.	.	.	.	16B-/LL	.	16B-/LL	.	.	.	.	.	8g/J	.	8ee-\	.	(>8eee-\J	.
.	.	.	.	.	.	.	.	.	.	.	.	.	16B-/JJ	.	16B-/JJ	.	.	.	.	.	.	.	.	.	.	.
[4B-\	.	[4B-\	Sal-	8r	.	4f\	.	8dd\	.	.	.	.	8B-/	.	8B-/	.	(4B-\	.	8r	.	4f/	.	8dd\	.	8ddd\L	.
.	.	.	.	8d\	.	.	.	8b-\J)	.	.	.	.	8r	.	8r	.	.	.	8d\	.	.	.	8b-\J	.	8bb-\J)	.
=106	=106	=106	=106	=106	=106	=106	=106	=106	=106	=106	=106	=106	=106	=106	=106	=106	=106	=106	=106	=106	=106	=106	=106	=106	=106	=106
8B-\L]	.	8B-\L]	.	4c\	.	4.f\	.	4cc\	.	.	2r	.	8r	.	8r	.	8B-\L	.	4c\	.	4.f/	.	4cc\	.	4ccc\	.
8A\	.	8A\	.	.	.	.	.	.	.	.	.	.	16f/LL	.	16f/LL	.	8A\	.	.	.	.	.	.	.	.	.
.	.	.	.	.	.	.	.	.	.	.	.	.	16f/JJ	.	16f/JJ	.	.	.	.	.	.	.	.	.	.	.
8B-\	.	8B-\	.	4B-\	.	.	.	4dd\	.	.	.	.	8r	.	8r	.	8B-\)	.	4B-\	.	.	.	4dd\	.	4ddd\	<
8G\J	.	8G\J	.	.	.	8g\	.	.	.	.	.	.	16B-/LL	.	16B-/LL	.	8G\J	.	.	.	8g/	.	.	.	.	.
.	.	.	.	.	.	.	.	.	.	.	.	.	16B-/JJ	.	16B-/JJ	.	.	.	.	.	.	.	.	.	.	.
=107	=107	=107	=107	=107	=107	=107	=107	=107	=107	=107	=107	=107	=107	=107	=107	=107	=107	=107	=107	=107	=107	=107	=107	=107	=107	=107
!	!	!	!	!LO:PB:g=original	!	!	!	!	!	!	!	!	!	!	!	!	!	!	!	!	!	!	!	!	!	!
8E-\	.	2E-\	.	2e-\	.	2b-\	.	[2gg\	.	.	[2E-\	f	8G/	.	8e-/	.	8E-\	.	8E-\	.	8b-\	.	8gg\	.	8eee-\	.
8r	.	.	.	.	.	.	.	.	.	.	.	.	8r	.	8r	.	8r	.	8r	.	8r	.	8r	.	8r	.
8E-\	.	.	.	.	.	.	.	.	.	.	.	.	8G/	.	8e-/	.	8E-\	.	8E-\	.	8b-\	.	8gg\	.	8eee-\	.
16r	.	.	.	.	.	.	.	.	.	.	.	.	16r	.	16r	.	16r	.	16r	.	16r	.	16r	.	16r	[
16E-\	.	.	.	.	.	.	.	.	.	.	.	.	16G/	.	16e-/	.	16E-\	.	16E-\	.	16b-\	.	16gg\	.	16eee-\	.
=108	=108	=108	=108	=108	=108	=108	=108	=108	=108	=108	=108	=108	=108	=108	=108	=108	=108	=108	=108	=108	=108	=108	=108	=108	=108	=108
4E-\	.	4E-\	-ve	4.e-\	.	4b-\	-ve	4.gg\]	.	.	4E-\]	.	4G/	.	4e-/	.	4E-\	.	4E-\	.	4b-\	.	4gg\	.	4eee-\	f
4r	.	4r	.	.	.	4r	.	.	.	.	4r	.	4r	.	4r	.	4r	.	4r	.	4r	.	4r	.	4r	.
.	.	.	.	16d\LL	-ve	.	.	16ff\LL	-ve	.	.	.	.	.	.	.	.	.	.	.	.	.	.	.	.	.
.	.	.	.	16c\JJ	.	.	.	16ee-\JJ	.	.	.	.	.	.	.	.	.	.	.	.	.	.	.	.	.	.
=109	=109	=109	=109	=109	=109	=109	=109	=109	=109	=109	=109	=109	=109	=109	=109	=109	=109	=109	=109	=109	=109	=109	=109	=109	=109	=109
!	!	!	!	!	!	!	!	!	!	!	!	!	!	!	!LO:PB:g=original	!	!	!	!LO:PB:g=original	!	!	!	!	!	!	!
4F\	.	[2F\	Sal-	(>2B-\	Sal-	[2f\	Sal-	(>2dd\	Sal-	.	4F\	p	4r	.	4r	.	4F\	.	4F\	.	4r	.	4r	.	2r	.
4r	.	.	.	.	.	.	.	.	.	.	4r	.	4B-/	.	4f/	.	4r	.	4r	.	4b-\	.	4dd\	.	.	.
=110	=110	=110	=110	=110	=110	=110	=110	=110	=110	=110	=110	=110	=110	=110	=110	=110	=110	=110	=110	=110	=110	=110	=110	=110	=110	=110
!LO:PB:g=original	!	!	!	!	!	!	!	!	!	!	!	!	!	!	!	!	!	!	!	!	!	!	!	!	!	!
4F\	.	2F\]	.	2A\)	.	2f\]	.	2cc\)	.	.	4F\	.	4r	.	4r	.	8F\	.	4F\	.	4r	.	4r	.	8r	.
.	.	.	.	.	.	.	.	.	.	.	.	.	.	.	.	.	8r	.	.	.	.	.	.	.	(>8ccc\L	.
4r	.	.	.	.	.	.	.	.	.	.	4r	.	4f/	.	4f/	.	4r	.	4r	.	4a/	.	4cc\	.	8.fff\	.
.	.	.	.	.	.	.	.	.	.	.	.	.	.	.	.	.	.	.	.	.	.	.	.	.	16eee-\Jk)	.
=111	=111	=111	=111	=111	=111	=111	=111	=111	=111	=111	=111	=111	=111	=111	=111	=111	=111	=111	=111	=111	=111	=111	=111	=111	=111	=111
!	!	!	!	!	!	!	!	!LO:PB:g=original	!	!	!	!	!LO:PB:g=original	!	!	!	!	!	!	!	!LO:PB:g=original	!	!	!	!	!
4BB-/	.	4BB-/	-ve	4B-\	-ve	4d\	-ve	4b-\	-ve	.	4BB-/	.	4B-/	.	4f/	.	8d\L	.	(>8f\L	.	(>8dd\L	.	(>8ff\L	.	4ddd\	.
.	.	.	.	.	.	.	.	.	.	.	.	.	.	.	.	.	16B-\Jk	.	16d\Jk)	.	16b-\Jk)	.	16dd\Jk)	.	.	.
.	.	.	.	.	.	.	.	.	.	.	.	.	.	.	.	.	16r	.	16r	.	16r	.	16r	.	.	.
4r	.	4r	.	4r	.	4r	.	4r	.	.	4r	.	4r	.	4r	.	8d\L	.	(>8f\L	.	(>8dd\L	.	(>8ff\L	.	4r	.
.	.	.	.	.	.	.	.	.	.	.	.	.	.	.	.	.	16B-\Jk	.	16d\Jk)	.	16b-\Jk)	.	16dd\Jk)	.	.	.
.	.	.	.	.	.	.	.	.	.	.	.	.	.	.	.	.	16r	.	16r	.	16r	.	16r	.	.	.
=112	=112	=112	=112	=112	=112	=112	=112	=112	=112	=112	=112	=112	=112	=112	=112	=112	=112	=112	=112	=112	=112	=112	=112	=112	=112	=112
!	!	!	!	!	!	!	!	!	!	!	!	!	!	!	!	!	!	!	!	!	!	!	!LO:PB:g=original	!	!	!
2r	.	2r	.	2r	.	2r	.	2r	.	.	2r	.	8r	.	8r	.	(>4.d\	.	(>4.f\	.	(>4.dd\	.	(>4.ff\	.	2r	.
.	.	.	.	.	.	.	.	.	.	.	.	.	16BB-/LL	.	16B-/LL	.	.	.	.	.	.	.	.	.	.	.
.	.	.	.	.	.	.	.	.	.	.	.	.	16BB-/JJ	.	16B-/JJ	.	.	.	.	.	.	.	.	.	.	.
.	.	.	.	.	.	.	.	.	.	.	.	.	8BB-/	.	8B-/	.	.	.	.	.	.	.	.	.	.	.
.	.	.	.	.	.	.	.	.	.	.	.	.	8r	.	8r	.	16c\LL	.	16e-\LL	.	16cc\LL	.	16ee-\LL	.	.	.
.	.	.	.	.	.	.	.	.	.	.	.	.	.	.	.	.	16B-\JJ)	.	16d\JJ)	.	16b-\JJ)	.	16dd\JJ)	.	.	.
=113	=113	=113	=113	=113	=113	=113	=113	=113	=113	=113	=113	=113	=113	=113	=113	=113	=113	=113	=113	=113	=113	=113	=113	=113	=113	=113
4F\	.	2F\	Sal-	2e-\	Sal-	2a\	Sal-	2cc\	Sal-	.	4F\	p	4f/	.	4f/	.	4r	.	4r	.	4r	.	4r	.	2r	.
4r	.	.	.	.	.	.	.	.	.	.	4r	.	4r	.	4r	.	4A\	.	4c\	.	4a/	.	4cc\	.	.	.
=114	=114	=114	=114	=114	=114	=114	=114	=114	=114	=114	=114	=114	=114	=114	=114	=114	=114	=114	=114	=114	=114	=114	=114	=114	=114	=114
4BB-/	.	4B-\	-ve	4d\	-ve	4b-\	-ve	4dd\	-ve	.	4BB-/	.	4B-/	.	4f/	.	(>8d\L	.	(>8f\L	.	(>8dd\L	.	(>8ff\L	.	2r	.
.	.	.	.	.	.	.	.	.	.	.	.	.	.	.	.	.	16B-\Jk)	.	16d\Jk)	.	16b-\Jk)	.	16dd\Jk)	.	.	.
.	.	.	.	.	.	.	.	.	.	.	.	.	.	.	.	.	16r	.	16r	.	16r	.	16r	.	.	.
4r	.	4r	.	4r	.	4r	.	4r	.	.	4r	.	4r	.	4r	.	(>8d\L	.	(>8f\L	.	(>8dd\L	.	(>8ff\L	.	.	.
.	.	.	.	.	.	.	.	.	.	.	.	.	.	.	.	.	16B-\Jk)	.	16d\Jk)	.	16b-\Jk)	.	16dd\Jk)	.	.	.
.	.	.	.	.	.	.	.	.	.	.	.	.	.	.	.	.	16r	.	16r	.	16r	.	16r	.	.	.
=115	=115	=115	=115	=115	=115	=115	=115	=115	=115	=115	=115	=115	=115	=115	=115	=115	=115	=115	=115	=115	=115	=115	=115	=115	=115	=115
!	!	!	!	!	!	!	!	!	!	!	!	!	!	!	!	!	!LO:PB:g=original	!	!	!	!	!	!	!	!	!
2r	.	2r	.	2r	.	2r	.	2r	.	.	2r	.	8r	.	8r	.	(>4.d\	.	(>4.f\	.	(>4.dd\	.	(>4.ff\	.	2r	.
.	.	.	.	.	.	.	.	.	.	.	.	.	16BB-/LL	.	16B-/LL	.	.	.	.	.	.	.	.	.	.	.
.	.	.	.	.	.	.	.	.	.	.	.	.	16BB-/JJ	.	16B-/JJ	.	.	.	.	.	.	.	.	.	.	.
.	.	.	.	.	.	.	.	.	.	.	.	.	8BB-/	.	8B-/	.	.	.	.	.	.	.	.	.	.	.
.	.	.	.	.	.	.	.	.	.	.	.	.	8r	.	8r	.	16c\LL	.	16e-\LL	.	16cc\LL	.	16ee-\LL	.	.	.
.	.	.	.	.	.	.	.	.	.	.	.	.	.	.	.	.	16B-\JJ)	.	16d\JJ)	.	16b-\JJ)	.	16dd\JJ)	.	.	.
=116	=116	=116	=116	=116	=116	=116	=116	=116	=116	=116	=116	=116	=116	=116	=116	=116	=116	=116	=116	=116	=116	=116	=116	=116	=116	=116
!	!LO:DY:b	!	!	!	!	!	!	!	!	!	!	!	!	!	!	!	!	!	!	!	!	!	!	!	!	!
4F\	pp	2F\	Sal-	2A\	Sal-	2e-\	Sal-	2cc\	Sal-	.	4F\	p	4f/	.	4f/	.	4r	.	4r	.	4r	.	4r	.	2r	.
4r	.	.	.	.	.	.	.	.	.	.	4r	.	4r	.	4r	.	(>4c\	.	4e-\	.	4a/	.	(>4cc\	.	.	.
=117	=117	=117	=117	=117	=117	=117	=117	=117	=117	=117	=117	=117	=117	=117	=117	=117	=117	=117	=117	=117	=117	=117	=117	=117	=117	=117
8B-\	.	4BB-/	-ve.	4B-\	-ve.	4d\	-ve.	4b-\	-ve.	.	4BB-/	.	8B-/	.	8f/	.	4B-\)	.	4d\	.	4b-\	.	4b-\)	.	2r	.
16BB-/LL	.	.	.	.	.	.	.	.	.	.	.	.	16BB-/LL	.	16B-/LL	.	.	.	.	.	.	.	.	.	.	.
16BB-/JJ	.	.	.	.	.	.	.	.	.	.	.	.	16BB-/JJ	.	16B-/JJ	.	.	.	.	.	.	.	.	.	.	.
8BB-/	.	4r	.	4r	.	4r	.	4r	.	.	4r	.	8BB-/	.	8B-/	.	8r	.	8r	.	8r	.	8r	.	.	.
8r	.	.	.	.	.	.	.	.	.	.	.	.	8r	.	8r	.	(>8e-\	.	(>8g-X\	.	(>8ee-\	.	8gg-X\	.	.	.
=118	=118	=118	=118	=118	=118	=118	=118	=118	=118	=118	=118	=118	=118	=118	=118	=118	=118	=118	=118	=118	=118	=118	=118	=118	=118	=118
!	!	!	!	!	!	!	!	!	!	!	!	!	!	!	!	!	!	!	!	!	!	!	!	!	!LO:PB:g=original	!
8r	.	2r	.	2r	.	2r	.	2r	.	.	2r	.	8r	.	8r	.	8d\)	.	8f\)	.	8dd\)	.	8ff\	.	4r	.
16BB-/LL	.	.	.	.	.	.	.	.	.	.	.	.	16BB-/LL	.	16B-/LL	.	8r	.	8r	.	8r	.	8r	.	.	.
16BB-/JJ	.	.	.	.	.	.	.	.	.	.	.	.	16BB-/JJ	.	16B-/JJ	.	.	.	.	.	.	.	.	.	.	.
8BB-/	.	.	.	.	.	.	.	.	.	.	.	.	8BB-/	.	8B-/	.	8r	.	8r	.	8r	.	8r	.	8r	.
8r	.	.	.	.	.	.	.	.	.	.	.	.	8r	.	8r	.	(>8c\	.	(>8e-\	.	(>8cc\	.	(>8ee-\	.	(>8aa\	.
=119	=119	=119	=119	=119	=119	=119	=119	=119	=119	=119	=119	=119	=|:119	=119	=|:119	=119	=119	=119	=119	=119	=119	=119	=119	=119	=119	=119
!	!	!	!	!	!	!	!	!	!	!	!	!	!	!	!	!	!	!	!LO:PB:g=original	!	!	!	!	!	!	!
8r	.	2r	.	2r	.	2r	.	2r	.	.	2r	.	8r	.	8r	.	8B-\)	.	8d\)	.	8b-\)	.	8dd\)	.	8bb-\)	.
16BB-/LL	.	.	.	.	.	.	.	.	.	.	.	.	16BB-/LL	.	16B-/LL	.	8r	.	8r	.	8r	.	8r	.	8r	.
16BB-/JJ	.	.	.	.	.	.	.	.	.	.	.	.	16BB-/JJ	.	16B-/JJ	.	.	.	.	.	.	.	.	.	.	.
8BB-/	.	.	.	.	.	.	.	.	.	.	.	.	8BB-/	.	8B-/	.	8r	.	8r	.	8r	.	8r	.	4r	.
8r	.	.	.	.	.	.	.	.	.	.	.	.	8r	.	8r	.	(>8e-\	.	(>8g-X\	.	(>8ee-\	.	(>8gg-X\	.	.	.
=120	=120	=120	=120	=120	=120	=120	=120	=120	=120	=120	=120	=120	=:|120	=120	=:|120	=120	=120	=120	=120	=120	=120	=120	=120	=120	=120	=120
!	!	!	!	!	!	!	!	!	!	!	!	!	!LO:TX:t=P:problem=powtórzony takt	!	!LO:TX:t=P:problem=powtórzony takt	!	!	!	!	!	!	!	!	!	!	!
8r	.	2r	.	2r	.	2r	.	2r	.	.	2r	.	2ryy	.	2ryy	.	8d\)	.	8f\)	.	8dd\)	.	8ff\)	.	4r	.
16BB-/LL	.	.	.	.	.	.	.	.	.	.	.	.	.	.	.	.	8r	.	8r	.	8r	.	8r	.	.	.
16BB-/JJ	.	.	.	.	.	.	.	.	.	.	.	.	.	.	.	.	.	.	.	.	.	.	.	.	.	.
8BB-/	.	.	.	.	.	.	.	.	.	.	.	.	.	.	.	.	8r	.	8r	.	8r	.	8r	.	8r	.
8r	.	.	.	.	.	.	.	.	.	.	.	.	.	.	.	.	(>8c\	.	8e-\	.	8cc\	.	(>8ee-\	.	(>8aa\	.
=121	=121	=121	=121	=121	=121	=121	=121	=121	=121	=121	=121	=121	=121	=121	=121	=121	=121	=121	=121	=121	=121	=121	=121	=121	=121	=121
!LO:PB:g=original	!	!	!	!	!	!	!	!	!	!	!	!	!	!	!	!	!	!	!	!	!LO:PB:g=original	!	!	!	!	!
[2BB-/	.	2r	.	2r	.	2r	.	2r	.	.	[2BB-/	.	2BB-/	.	8.B-L/	.	8.B-\L)	.	8.d\L	.	8.b-\L	.	8.dd\L)	.	4bb-\)	.
!	!	!	!	!	!	!	!	!	!	!	!	!	!	!	!	!	!LO:TX:t=P:problem=mixed beam	!	!	!	!LO:TX:t=P:problem=mixed beam	!	!	!	!	!
.	.	.	.	.	.	.	.	.	.	.	.	.	.	.	16f/K	.	16BB-/Jk	.	16B-\Jk	.	16d/Jk	.	16b-\Jk	.	.	.
.	.	.	.	.	.	.	.	.	.	.	.	.	.	.	8.f/	.	8.BB-/L	.	(>16B-\LL	.	8.d/L	.	(>16b-\LL	.	16bb-\LL	.
.	.	.	.	.	.	.	.	.	.	.	.	.	.	.	.	.	.	.	16F\	.	.	.	16f/	.	(>16ff\	.
.	.	.	.	.	.	.	.	.	.	.	.	.	.	.	.	.	.	.	16B-\	.	.	.	16b-\	.	16bb-\	.
!	!	!	!	!	!	!	!	!	!	!	!	!	!	!	!	!	!LO:TX:t=P:problem=mixed beam	!	!	!	!LO:TX:t=P:problem=mixed beam	!	!	!	!	!
.	.	.	.	.	.	.	.	.	.	.	.	.	.	.	16B-/Jk	.	16B-\Jk	.	16d\JJ)	.	16b-\Jk	.	16dd\JJ)	.	16ddd\JJ)	.
=122	=122	=122	=122	=122	=122	=122	=122	=122	=122	=122	=122	=122	=122	=122	=122	=122	=122	=122	=122	=122	=122	=122	=122	=122	=122	=122
!	!	!	!	!	!	!	!	!	!	!	!	!	!	!	!	!	!	!	!	!	!	!	!LO:PB:g=original	!	!	!
2BB-/_	.	2r	.	2r	.	2r	.	2r	.	.	2BB-/_	.	2BB-/	.	8.B-L/	.	8.B-\L	.	8.d\L	.	8.b-\L	.	8.dd\L	.	4bb-\	.
!	!	!	!	!	!	!	!	!	!	!	!	!	!	!	!	!	!LO:TX:t=P:problem=mixed beam	!	!	!	!LO:TX:t=P:problem=mixed beam	!	!	!	!	!
.	.	.	.	.	.	.	.	.	.	.	.	.	.	.	16f/K	.	16BB-/Jk	.	16B-\Jk	.	16d/Jk	.	16b-\Jk	.	.	.
.	.	.	.	.	.	.	.	.	.	.	.	.	.	.	8.f/	.	8.BB-/L	.	16B-\LL	.	8.d/L	.	(>16b-\LL	.	16bb-\LL	.
.	.	.	.	.	.	.	.	.	.	.	.	.	.	.	.	.	.	.	16F\	.	.	.	16f/	.	(>16ff\	.
.	.	.	.	.	.	.	.	.	.	.	.	.	.	.	.	.	.	.	16B-\	.	.	.	16b-\	.	16bb-\	.
!	!	!	!	!	!	!	!	!	!	!	!	!	!	!	!	!	!LO:TX:t=P:problem=mixed beam	!	!	!	!LO:TX:t=P:problem=mixed beam	!	!	!	!	!
.	.	.	.	.	.	.	.	.	.	.	.	.	.	.	16B-/Jk	.	16B-\Jk	.	16d\JJ	.	16b-\Jk	.	16dd\JJ)	.	16ddd\JJ)	.
=123	=123	=123	=123	=123	=123	=123	=123	=123	=123	=123	=123	=123	=123	=123	=123	=123	=123	=123	=123	=123	=123	=123	=123	=123	=123	=123
2BB-/]	.	2r	.	2r	.	2r	.	2r	.	.	2BB-/]	.	2BB-/	.	2B-/	.	2BB-/	.	2g-X\	.	2cc\	.	2ee-\	.	2aa\	.
=124	=124	=124	=124	=124	=124	=124	=124	=124	=124	=124	=124	=124	=124	=124	=124	=124	=124	=124	=124	=124	=124	=124	=124	=124	=124	=124
8BB-/	.	2r	.	2r	.	2r	.	2r	.	.	8BB-/	.	8BB-/	.	8B-/	.	8BB-/	.	8f\	.	8b-\	.	8dd\	.	8bb-\	.
8r	.	.	.	.	.	.	.	.	.	.	8r	.	8r	.	8r	.	8r	.	8r	.	8r	.	8r	.	8r	.
8BB-/	.	.	.	.	.	.	.	.	.	.	8BB-/	.	8B-/	.	8f/	.	8BB-/	.	8B-\	.	8b-\	.	8dd\	.	8bb-\	.
16r	.	.	.	.	.	.	.	.	.	.	8r	.	16r	.	16r	.	16r	.	16r	.	16r	.	16r	.	16r	.
16BB-/	.	.	.	.	.	.	.	.	.	.	.	.	16B-/	.	16f/	.	16BB-/	.	16B-\	.	16dd\	.	16bb-\	.	16bb-\	.
=125	=125	=125	=125	=125	=125	=125	=125	=125	=125	=125	=125	=125	=125	=125	=125	=125	=125	=125	=125	=125	=125	=125	=125	=125	=125	=125
!	!	!	!	!	!	!	!	!	!	!	!	!	!	!	!	!	!LO:PB:g=original	!	!	!	!	!	!	!	!	!
4.BB-/	.	4r	.	4r	.	4r	.	4r	.	.	4.BB-/	.	4.B-/	.	4.f/	.	4.BB-/	.	4.B-\	.	4.dd\	.	4.bb-\	.	4.bb-\	.
.	.	8r	.	8r	.	8r	.	8r	.	.	.	.	.	.	.	.	.	.	.	.	.	.	.	.	.	.
8ryy	.	8ryy	.	8ryy	.	8ryy	.	8ryy	.	.	8ryy	.	8ryy	.	8ryy	.	8ryy	.	8ryy	.	8ryy	.	8ryy	.	8ryy	.
==	==	==	==	==	==	==	==	==	==	==	==	==	==	==	==	==	==	==	==	==	==	==	==	==	==	==
*-	*-	*-	*-	*-	*-	*-	*-	*-	*-	*-	*-	*-	*-	*-	*-	*-	*-	*-	*-	*-	*-	*-	*-	*-	*-	*-
!!!system-decoration: [(s1[(s2,s3)][(s4,s5)])][([(s6,s7)]s8)][(s9,s10,s11,s12)]s13
!!!RDF**kern: > = above
!!!RDF**kern: < = below
!!!ENC: Andrzej Kubiczek
!!!END: 2020-01-31
!!!ENC: Leszek Kubiak
!!!END: 2020-03-03
